!!!!SEGMENT: pl-cz--ii-153--002_maader-ludwik--requiem-in-dis-dies-irae.krn
!!!cenid: 17xx:961
!!!COM: Maader, Ludwik
!!!COM-rismid: pe30020328
!!!CDT: <1794->1798
!!!CNT:
!!!OPR: Requiem in Dis
!!!OTL: Dies irae
!!!OMV: 002
!!!PDT:
!!!AGN: Sacred; Requiem
!!!SMS-siglum: PL-CZ
!!!SMS-shelfmark: II-153
!!!SMS-shelfwork: 001-002 M
!!!SMS-variant:
!!!SMS-altvar:
!!!NIFC-rismid: 300000766
!!!URL-scan: http://repozytorium.nifc.pl/skany/pl-cz-nut--ii-153
!!!ONB-nifc: UWAGA: części Requiem: Requiem, Dies irae, Domine Jesu Christe, Sanctus, Benedictus, Agnus, Lux aeterna, Requiem
!!!key:
**kern	**fba	**dynam	**kern	**dynam	**kern	**dynam	**kern	**kern	**text	**kern	**text	**kern	**text	**dynam	**kern	**text	**text	**kern	**dynam	**kern	**dynam
*part10	*part10	*part10	*part9	*part9	*part8	*part8	*part7	*part6	*part6	*part5	*part5	*part4	*part4	*part4	*part3	*part3	*part3	*part2	*part2	*part1	*part1
*staff10	*staff10	*	*staff9	*	*staff8	*	*staff7	*staff6	*staff6	*staff5	*staff5	*staff4	*staff4	*	*staff3	*staff3	*staff3	*staff2	*	*staff1	*
*Iorgan	*	*	*Ivioln	*	*Ivioln	*	*Ivioln	*Iempty	*	*Itenor	*	*Ialto	*	*	*Ivox	*	*	*Iempty	*	*Iempty	*
*I"Organo	*	*	*I"Violino Secondo.	*	*I"Violino Primo	*	*I"Violino Principale	*I"Baſso	*	*I"Tenore	*	*I"Alto	*	*	*I"Canto	*	*	*I"Cornu Secondo obl in Dis	*	*I"Cornu Primo in Dis obl:	*
*I'org	*	*	*I'vl 2	*	*I'vl 1	*	*I'vl princ	*I'B	*	*I'T	*	*I'A	*	*	*I'S	*	*	*I'cor 2 in E|b	*	*I'cor 1 in E|b	*
*clefF4	*	*	*clefG2	*	*clefG2	*	*clefG2	*clefF4	*	*clefC4	*	*clefC3	*	*	*clefC1	*	*	*clefG2	*	*clefG2	*
*	*	*	*	*	*	*	*	*	*	*	*	*	*	*	*	*	*	*ITrd5c9	*	*ITrd5c9	*
*k[b-e-a-]	*	*	*k[b-e-a-]	*	*k[b-e-a-]	*	*k[b-e-a-]	*k[b-e-a-]	*	*k[b-e-a-]	*	*k[b-e-a-]	*	*	*k[b-e-a-]	*	*	*k[b-e-a-]	*	*k[b-e-a-]	*
*E-:	*	*	*E-:	*	*E-:	*	*E-:	*E-:	*	*E-:	*	*E-:	*	*	*E-:	*	*	*E-:	*	*E-:	*
*M2/4	*	*	*M2/4	*	*M2/4	*	*M2/4	*M2/4	*	*M2/4	*	*M2/4	*	*	*M2/4	*	*	*M2/4	*	*M2/4	*
*2\right	*	*	*2\right	*	*2\right	*	*2\right	*2\right	*	*2\right	*	*2\right	*	*	*2\right	*	*	*2\right	*	*2\right	*
=1	=1	=1	=1	=1	=1	=1	=1	=1	=1	=1	=1	=1	=1	=1	=1	=1	=1	=1	=1	=1	=1
!LO:TX:t=P:problem:znaki BB- G-BB-	!	!	!	!	!	!	!	!LO:TX:a:t=Solo	!	!	!	!	!	!	!LO:TX:a:t=allo	!	!	!	!	!	!
!	!	!	!LO:N:vis=00	!	!LO:N:vis=00	!	!	!	!	!LO:N:vis=00	!	!LO:N:vis=00	!	!	!LO:TX:t=P:problem:znaki b- f- d-	!	!	!LO:N:vis=00	!	!LO:N:vis=00	!
!LO:TX:a:t=allo. Solo.	!	!LO:DY:Bi:b:t=piano	!LO:TX:a:t=allo	!	!LO:TX:a:t=allo	!	!	!LO:TX:a:t=Allo mod&colon;:rj	!	!LO:TX:a:t=allo	!	!LO:TX:a:t=allo	!	!	!LO:N:vis=00	!	!	!LO:TX:a:t=allo:rj	!	!LO:TX:a:t=allo	!
4E-'\	.	p	0r	.	0r	.	2ryy	4E-\	Di-	0r	.	0r	.	.	0r	.	.	0r	.	0r	.
4E-'\	.	.	.	.	.	.	.	4E-\	-es	.	.	.	.	.	.	.	.	.	.	.	.
=2	=2	=2	=2	=2	=2	=2	=2	=2	=2	=2	=2	=2	=2	=2	=2	=2	=2	=2	=2	=2	=2
4B-'\	.	.	.	.	.	.	2ryy	4B-\	i-	.	.	.	.	.	.	.	.	.	.	.	.
4B-'\	.	.	.	.	.	.	.	4B-\	-rae	.	.	.	.	.	.	.	.	.	.	.	.
=3	=3	=3	=3	=3	=3	=3	=3	=3	=3	=3	=3	=3	=3	=3	=3	=3	=3	=3	=3	=3	=3
8e-'\L	.	.	.	.	.	.	2ryy	8e-\L	Di-	.	.	.	.	.	.	.	.	.	.	.	.
8B-'\	.	.	.	.	.	.	.	8B-\J	.	.	.	.	.	.	.	.	.	.	.	.	.
8G'\	.	.	.	.	.	.	.	8G\L	-es	.	.	.	.	.	.	.	.	.	.	.	.
8E-'\J	.	.	.	.	.	.	.	8E-\J	.	.	.	.	.	.	.	.	.	.	.	.	.
=4	=4	=4	=4	=4	=4	=4	=4	=4	=4	=4	=4	=4	=4	=4	=4	=4	=4	=4	=4	=4	=4
4B-|\	.	.	.	.	.	.	2ryy	4B-\	il-	.	.	.	.	.	.	.	.	.	.	.	.
4BB-|>/	.	.	.	.	.	.	.	4BB-/	-la	.	.	.	.	.	.	.	.	.	.	.	.
=5	=5	=5	=5	=5	=5	=5	=5	=5	=5	=5	=5	=5	=5	=5	=5	=5	=5	=5	=5	=5	=5
!LO:N:vis=00	!	!	!	!LO:DY:Bi:b:t=piano.	!	!LO:DY:b:Bi:t=piano.	!	!LO:N:vis=00	!	!LO:N:vis=00	!	!LO:TX:a:t=Solo.	!	!	!LO:TX:a:t=Solo	!	!	!LO:N:vis=00	!	!LO:N:vis=00	!
0r	.	.	4ee-\	p	4gg\	p	2ryy	0r	.	0r	.	4ee-\	Sol-	.	4gg\	Sol-	.	0r	.	0r	.
.	.	.	4dd\	.	4ff\	.	.	.	.	.	.	4dd\	-vet	.	4ff\	-vet	.	.	.	.	.
=6	=6	=6	=6	=6	=6	=6	=6	=6	=6	=6	=6	=6	=6	=6	=6	=6	=6	=6	=6	=6	=6
.	.	.	4cc\	.	4ee-\	.	2ryy	.	.	.	.	4cc\	Saec-	.	4ee-\	Saec-	.	.	.	.	.
.	.	.	4b-\	.	4dd\	.	.	.	.	.	.	4b-\	-lum	.	4dd\	-lum	.	.	.	.	.
=7	=7	=7	=7	=7	=7	=7	=7	=7	=7	=7	=7	=7	=7	=7	=7	=7	=7	=7	=7	=7	=7
.	.	.	4a-/	.	4cc\	.	2ryy	.	.	.	.	4a-\	in	.	4cc\	in	.	.	.	.	.
.	.	.	8.g/L	.	8.b-\L	.	.	.	.	.	.	8.g\L	fa-	.	8.b-\L	fa-	.	.	.	.	.
.	.	.	16b-/Jk	.	16cc\Jk	.	.	.	.	.	.	16a-\Jk	.	.	16cc\Jk	.	.	.	.	.	.
=8	=8	=8	=8	=8	=8	=8	=8	=8	=8	=8	=8	=8	=8	=8	=8	=8	=8	=8	=8	=8	=8
.	.	.	8qqg/	.	8qqb-/	.	.	.	.	.	.	8qqg/	.	.	8qqb-/	.	.	.	.	.	.
.	.	.	4f/	.	4a-/	.	2ryy	.	.	.	.	4f\	-vil-	.	4a-\	-vil-	.	.	.	.	.
.	.	.	4e-/	.	4g/	.	.	.	.	.	.	4e-\	-la	.	4g\	-la	.	.	.	.	.
=9	=9	=9	=9	=9	=9	=9	=9	=9	=9	=9	=9	=9	=9	=9	=9	=9	=9	=9	=9	=9	=9
!	!	!	!LO:N:vis=00	!	!LO:N:vis=00	!	!	!	!	!LO:N:vis=00	!	!LO:N:vis=00	!	!	!LO:N:vis=00	!	!	!LO:N:vis=00	!	!LO:N:vis=00	!
4e-'\	.	.	0r	.	0r	.	2ryy	4e-\	Sol-	0r	.	0r	.	.	0r	.	.	0r	.	0r	.
4B-'\	.	.	.	.	.	.	.	4B-\	-vet	.	.	.	.	.	.	.	.	.	.	.	.
=10	=10	=10	=10	=10	=10	=10	=10	=10	=10	=10	=10	=10	=10	=10	=10	=10	=10	=10	=10	=10	=10
!	!	!	!	!	!	!	!	!LO:LB:g=original	!	!	!	!	!	!	!	!	!	!	!	!	!
4c'\	.	.	.	.	.	.	2ryy	4c\	Saec-	.	.	.	.	.	.	.	.	.	.	.	.
4A-|\	.	.	.	.	.	.	.	4A-\	-lum	.	.	.	.	.	.	.	.	.	.	.	.
=11	=11	=11	=11	=11	=11	=11	=11	=11	=11	=11	=11	=11	=11	=11	=11	=11	=11	=11	=11	=11	=11
4B-|\	.	.	.	.	.	.	2ryy	4B-\	in	.	.	.	.	.	.	.	.	.	.	.	.
4BB-|>/	.	.	.	.	.	.	.	4BB-/	fa-	.	.	.	.	.	.	.	.	.	.	.	.
=12	=12	=12	=12	=12	=12	=12	=12	=12	=12	=12	=12	=12	=12	=12	=12	=12	=12	=12	=12	=12	=12
4E-\	.	.	.	.	.	.	2ryy	4E-\	-vil-	.	.	.	.	.	.	.	.	.	.	.	.
!	!	!	!	!	!	!	!	!LO:TX:a:t=T&colon;	!	!	!	!	!	!	!	!	!	!	!	!	!
4E-\	.	.	.	.	.	.	.	4E-\	-la	.	.	.	.	.	.	.	.	.	.	.	.
=13	=13	=13	=13	=13	=13	=13	=13	=13	=13	=13	=13	=13	=13	=13	=13	=13	=13	=13	=13	=13	=13
!LO:LB:g=original	!	!	!	!	!	!	!	!	!	!	!	!	!	!	!LO:LB:g=original	!	!	!	!	!	!
!	!	!	!	!LO:DY:Bi:b:t=forte	!	!LO:DY:Bi:b:t=for:rj	!	!	!	!LO:TX:a:t=Tutti	!	!LO:TX:a:t=Tutti	!	!	!LO:TX:a:t=Tutti	!	!	!LO:TX:a:t=Tutti	!LO:DY:b:Bi:for:rj	!	!LO:DY:Bi:b:t=for
4B-\	8 -6	.	4dd\	f	4bb-\	f	2ryy	2B-\	in	2B-\	in	4d\	in	.	4b-\	in	.	8BB-/L	f	[<2b-\	f
.	.	.	.	.	.	.	.	.	.	.	.	.	.	.	.	.	.	8B-/	.	.	.
4B-\	7 5	.	4ff\	.	4aa-\	.	.	.	.	.	.	4f\	fa-	.	4a-\	fa-	.	8BB-/	.	.	.
.	.	.	.	.	.	.	.	.	.	.	.	.	.	.	.	.	.	8B-/J	.	.	.
=14	=14	=14	=14	=14	=14	=14	=14	=14	=14	=14	=14	=14	=14	=14	=14	=14	=14	=14	=14	=14	=14
!	!	!	!	!	!	!	!	!	!	!	!	!LO:LB:g=original	!	!	!	!	!	!	!	!	!
4B-\	60 4	.	4ee-\	.	4gg-X\	.	2ryy	2B-\	fa-	2B-\	fa-	4e-\	-vil-	.	4g-X/	-vil-	.	8BB-/L	.	2b-\_<	.
.	.	.	.	.	.	.	.	.	.	.	.	.	.	.	.	.	.	8B-/	.	.	.
4B-\	5	.	4dd\	.	4ff\	.	.	.	.	.	.	4d\	-la	.	4f/	-la	.	8BB-/	.	.	.
.	.	.	.	.	.	.	.	.	.	.	.	.	.	.	.	.	.	8B-/J	.	.	.
=15	=15	=15	=15	=15	=15	=15	=15	=15	=15	=15	=15	=15	=15	=15	=15	=15	=15	=15	=15	=15	=15
!	!	!	!LO:LB:g=original	!	!	!	!	!	!	!	!	!	!	!	!	!	!	!	!	!	!
4B-\	-6 4	.	8ee-\L	.	8gg-X\L	.	2ryy	2B-\	-vil-	2B-\	-vil-	8e-\L	in	.	8g-X/L	in	.	8BB-/L	.	2b-\_<	.
.	.	.	16dd\L	.	16ff\L	.	.	.	.	.	.	16d\L	.	.	16f/L	.	.	8B-/	.	.	.
.	7 5	.	16ee-\JJ	.	16gg-\JJ	.	.	.	.	.	.	16e-\JJ	.	.	16g-/JJ	.	.	.	.	.	.
4B-\	6 4	.	8ff\L	.	8aa-\L	.	.	.	.	.	.	8f/	.	.	8a-/	.	.	8BB-/	.	.	.
.	.	.	8ee-\J	.	8gg-\J	.	.	.	.	.	.	8e-/	Fa-	.	8g-/	fa-	.	8B-/J	.	.	.
=16	=16	=16	=16	=16	=16	=16	=16	=16	=16	=16	=16	=16	=16	=16	=16	=16	=16	=16	=16	=16	=16
.	-6 4	.	8qqee-/	.	8qqgg/	.	.	.	.	.	.	8qqe-/	.	.	8qqg/	.	.	.	.	.	.
4B-\	5 3	.	4dd\	.	4ff\	.	2ryy	2B-\	-la	2B-\	-la	4d\	-vil-	.	4f/	-vil-	.	8BB-/L	.	2b-\_<	.
.	_ _	.	.	.	.	.	.	.	.	.	.	.	.	.	.	.	.	8B-/	.	.	.
4B-\	.	.	4dd\	.	4ff\	.	.	.	.	.	.	4d\	-la	.	4f/	-la	.	8BB-/	.	.	.
.	.	.	.	.	.	.	.	.	.	.	.	.	.	.	.	.	.	8B-/J	.	.	.
=17	=17	=17	=17	=17	=17	=17	=17	=17	=17	=17	=17	=17	=17	=17	=17	=17	=17	=17	=17	=17	=17
4B-\	8 -6	.	4d/	.	4b-\	.	2ryy	4B-\	tes-	4B-\	tes-	4d\	Tes-	.	4b-\	Tes-	.	8BB-/L	.	2b-\_<	.
.	.	.	.	.	.	.	.	.	.	.	.	.	.	.	.	.	.	8B-/	.	.	.
4B-\	7 5	.	4f/	.	4a-\	.	.	4B-\	-te	4B-\	-te	4f\	-te	.	4a-\	-te	.	8BB-/	.	.	.
.	.	.	.	.	.	.	.	.	.	.	.	.	.	.	.	.	.	8B-/J	.	.	.
=18	=18	=18	=18	=18	=18	=18	=18	=18	=18	=18	=18	=18	=18	=18	=18	=18	=18	=18	=18	=18	=18
!	!	!	!	!	!LO:LB:g=original	!	!	!	!	!	!	!	!	!	!	!	!	!	!	!	!
4B-\	-6 4	.	4e-/	.	4g-X/	.	2ryy	4B-\	Da-	4B-\	Da-	4e-\	Da-	.	4g-X/	Da-	.	8BB-/L	.	2b-\_<	.
.	.	.	.	.	.	.	.	.	.	.	.	.	.	.	.	.	.	8B-/	.	.	.
4B-\	5 3	.	4d/	.	4f/	.	.	4B-\	-vid	4B-\	-vid	4d\	-vid	.	4f/	-vid	.	8BB-/	.	.	.
.	.	.	.	.	.	.	.	.	.	.	.	.	.	.	.	.	.	8B-/J	.	.	.
=19	=19	=19	=19	=19	=19	=19	=19	=19	=19	=19	=19	=19	=19	=19	=19	=19	=19	=19	=19	=19	=19
4B-\	-6 4	.	8e-/L	.	8g-X/L	.	2ryy	4B-\	cum	4B-\	cum	8e-\L	cum	.	8g-X/L	cum	.	8BB-/L	.	2b-\_<	.
.	7 5	.	16d/L	.	16f/L	.	.	.	.	.	.	16d\L	.	.	16f/L	.	.	8B-/	.	.	.
.	.	.	16e-/JJ	.	16g-/JJ	.	.	.	.	.	.	16e-\JJ	.	.	16g-/JJ	.	.	.	.	.	.
4B-\	6 4	.	8f/L	.	8a-/L	.	.	4B-\	Sy-	4B-\	Sÿ-	8f\	.	.	8a-/L	Sẏ-	.	8BB-/	.	.	.
.	.	.	8e-/J	.	8g-/J	.	.	.	.	.	.	8e-\	Sy-	.	8g-/J	.	.	8B-/J	.	.	.
=20	=20	=20	=20	=20	=20	=20	=20	=20	=20	=20	=20	=20	=20	=20	=20	=20	=20	=20	=20	=20	=20
!	!	!	!	!	!	!	!	!LO:LB:g=original	!	!LO:LB:g=original	!	!	!	!	!	!	!	!	!	!	!
.	-6 4	.	8qqe-/	.	8qqg/	.	.	.	.	.	.	8qqe-/	.	.	8qqg/	.	.	.	.	.	.
4B-\	5 3	.	4d/	.	4f/	.	2ryy	4B-\	-bil-	4B-\	-bil-	4d\	-bil-	.	4f/	-bil-	.	8BB-/L	.	2b-\]	.
.	.	.	.	.	.	.	.	.	.	.	.	.	.	.	.	.	.	8B-/	.	.	.
4B-\	_ _	.	4d/	.	4f/	.	.	4BB-/	-la	4B-\	-la	4d\	-la	.	4f/	-la	.	8BB-/	.	.	.
.	.	.	.	.	.	.	.	.	.	.	.	.	.	.	.	.	.	8B-/J	.	.	.
=21	=21	=21	=21	=21	=21	=21	=21	=21	=21	=21	=21	=21	=21	=21	=21	=21	=21	=21	=21	=21	=21
!LO:LB:g=original	!	!	!	!	!	!	!	!	!	!	!	!	!	!	!LO:LB:g=original	!	!	!LO:N:vis=0	!	!LO:N:vis=0	!
4A-\	4 2	.	2r	.	4b-\	.	2ryy	4A-\	Sol-	4B-\	Sol-	4f\	Sol-	.	4b-\	Sol-	.	1r	.	1r	.
4A-\	_ _	.	.	.	8cc\L	.	.	4A-\	-vet	4B-\	-vet	4f\	-vet	.	8cc\L	-vet	.	.	.	.	.
.	.	.	.	.	8dd\J	.	.	.	.	.	.	.	.	.	8dd\J	.	.	.	.	.	.
=22	=22	=22	=22	=22	=22	=22	=22	=22	=22	=22	=22	=22	=22	=22	=22	=22	=22	=22	=22	=22	=22
!	!	!	!	!	!	!	!	!	!	!	!	!LO:LB:g=original	!	!	!	!	!	!	!	!	!
4G\	x 6	.	4b-\	.	4ee-\	.	2ryy	4G\	Saec-	4B-\	Saec-	4g\	Saec-	.	4ee-\	Saec-	.	.	.	.	.
4G\	.	.	4b-\	.	4ee-\	.	.	4G\	-lum	4B-\	-lum	4g\	-lum	.	4ee-\	-lum	.	.	.	.	.
=23	=23	=23	=23	=23	=23	=23	=23	=23	=23	=23	=23	=23	=23	=23	=23	=23	=23	=23	=23	=23	=23
4BB-/	5 3	.	4dd\	.	4ff\	.	2ryy	4BB-/	in	4d\	in	4b-\	in	.	4ff\	in	.	4B-/	.	4f\	.
4BB-/	6 4	.	8ee-\L	.	8gg\L	.	.	4BB-/	fa-	8e-\L	fa-	4b-\	fa-	.	8gg\L	fa-	.	8e-\L	.	8g\L	.
.	7 5	.	8ff\J	.	8aa-\J	.	.	.	.	8f\J	.	.	.	.	8aa-\J	.	.	8f\J	.	8a-\J	.
=24	=24	=24	=24	=24	=24	=24	=24	=24	=24	=24	=24	=24	=24	=24	=24	=24	=24	=24	=24	=24	=24
!	!	!	!	!	!	!	!	!	!	!	!	!	!	!	!	!	!	!LO:LB:g=original	!	!	!
.	_ _	.	8qqff/	.	8qqaa-/	.	.	.	.	8qqf/	.	.	.	.	8qqaa-/	.	.	8qqf/	.	8qqa-/	.
4E-\	5 3	.	4ee-\	.	4gg\	.	2ryy	4E-\	-vil-	4e-\	-vil-	4b-\	-vil-	.	4gg\	-vil-	.	4e-\	.	4g\	.
4E-\	.	.	4ee-\	.	4gg\	.	.	4E-\	-la	4e-\	-la	4b-\	-la	.	4gg\	-la	.	4e-\	.	4g\	.
=25	=25	=25	=25	=25	=25	=25	=25	=25	=25	=25	=25	=25	=25	=25	=25	=25	=25	=25	=25	=25	=25
!	!	!	!	!	!	!	!	!	!	!	!	!	!	!	!	!	!	!LO:N:vis=0	!	!LO:N:vis=0	!
2A-\	4 2	.	2r	.	4b-M\	.	2ryy	4A-\	tes-	4B-\	tes-	4f\	Tes-	.	4b-\	Tes-	.	1r	.	1r	.
.	.	.	.	.	8cc\L	.	.	4A-\	-te	4B-\	-te	4f\	-te	.	8cc\L	-te	.	.	.	.	.
.	.	.	.	.	8dd\J	.	.	.	.	.	.	.	.	.	8dd\J	.	.	.	.	.	.
=26	=26	=26	=26	=26	=26	=26	=26	=26	=26	=26	=26	=26	=26	=26	=26	=26	=26	=26	=26	=26	=26
4G\	.	.	4b-\	.	4ee-\	.	2ryy	4G\	Da-	4B-\	Da-	4g\	Da-	.	4ee-\	Da-	.	.	.	.	.
8G\L	.	.	4b-\	.	8ee-\L	.	.	8G\L	-vid	8B-\L	-vid	8g\L	-vid	.	8ee-\L	-vid	.	.	.	.	.
8E-\J	.	.	.	.	8gg\J	.	.	8E-\J	.	8e-\J	.	8b-\J	.	.	8gg\J	.	.	.	.	.	.
=27	=27	=27	=27	=27	=27	=27	=27	=27	=27	=27	=27	=27	=27	=27	=27	=27	=27	=27	=27	=27	=27
!	!	!	!	!	!	!	!	!	!	!	!	!	!	!	!	!	!	!	!	!LO:LB:g=original	!
8A-\L	.	.	8a-/L	.	8ff\L	.	2ryy	8A-\L	cum	8c\L	cum	8a-\L	cum	.	8ff\L	cum	.	4r	.	4r	.
8G\	.	.	8g/	.	8ee-\	.	.	8G\J	.	8B-\J	.	8g\J	.	.	8ee-\J	.	.	.	.	.	.
8A-\	.	.	8a-/	.	8ff\	.	.	8A-\L	Sy-	8c\L	Sy-	8a-\L	Sy-	.	8ff\L	Sẏ-	.	4B-/	.	4b-\	.
8B-\J	.	.	8b-/J	.	8gg\J	.	.	8B-\J	.	8B-\J	.	8b-\J	.	.	8gg\J	.	.	.	.	.	.
=28	=28	=28	=28	=28	=28	=28	=28	=28	=28	=28	=28	=28	=28	=28	=28	=28	=28	=28	=28	=28	=28
!	!	!	!	!	!	!	!	!LO:LB:g=original	!	!	!	!	!	!	!	!	!	!	!	!	!
8r	.	.	4g/	.	4ee-\	.	2ryy	4E-\	-bil-	4B-\	-bil-	4g\	-bil-	.	4ee-\	-bil-	.	4g\	.	4g\	.
8E-\	.	.	.	.	.	.	.	.	.	.	.	.	.	.	.	.	.	.	.	.	.
4E-\	.	.	4r	.	4r	.	.	4E-\	-la	4B-\	-la	4g\	-la	.	4ee-\	-la	.	4r	.	4r	.
=29	=29	=29	=29	=29	=29	=29	=29	=29	=29	=29	=29	=29	=29	=29	=29	=29	=29	=29	=29	=29	=29
!	!	!	!LO:LB:g=original	!	!	!	!	!	!	!LO:LB:g=original	!	!	!	!	!	!	!	!LO:N:vis=00	!	!LO:N:vis=00	!
2r	.	.	8gg\L	.	(8bb-\L	.	2ryy	4E-\	tes-	4e-\	Tes-	4g\	Tes-	.	4b-\	tes-	.	0r	.	0r	.
.	.	.	8ee-\	.	8gg\	.	.	.	.	.	.	.	.	.	.	.	.	.	.	.	.
.	.	.	8b-\	.	8ee-\	.	.	4E-\	-te	4e-\	-te	4g\	-te	.	4b-\	-te	.	.	.	.	.
.	.	.	[<8g\J	.	8b-\J)	.	.	.	.	.	.	.	.	.	.	.	.	.	.	.	.
=30	=30	=30	=30	=30	=30	=30	=30	=30	=30	=30	=30	=30	=30	=30	=30	=30	=30	=30	=30	=30	=30
4c\	x n	.	8g/L]	.	8b-/L	.	2ryy	4c\	da-	4c\	Da-	8g\L	Da-	.	8b-\L	Da-	.	.	.	.	.
.	.	.	8en/J	.	8g/J	.	.	.	.	.	.	8en\J	.	.	8g\J	.	.	.	.	.	.
4F\	x -	.	4f/	.	4a-/	.	.	4F\	-vid	4c\	-vid	4f\	-vid	.	4a-\	-vid	.	.	.	.	.
=31	=31	=31	=31	=31	=31	=31	=31	=31	=31	=31	=31	=31	=31	=31	=31	=31	=31	=31	=31	=31	=31
!	!	!	!	!	!	!	!	!	!	!	!	!LO:LB:g=original	!	!	!LO:LB:g=original	!	!	!	!	!	!
2r	.	.	8ff\L	.	(8aa-\L	.	2ryy	4BB-/	cum	4d\	cum	4f\	cum	.	4a-/	cum	.	.	.	.	.
.	.	.	8dd\	.	8ff\	.	.	.	.	.	.	.	.	.	.	.	.	.	.	.	.
.	.	.	8a-\	.	8dd\	.	.	4BB-/	Sy-	4d\	Sy-	4f\	Sy-	.	4a-/	Sẏ-	.	.	.	.	.
.	.	.	[<8f\J	.	8a-\J)	.	.	.	.	.	.	.	.	.	.	.	.	.	.	.	.
=32	=32	=32	=32	=32	=32	=32	=32	=32	=32	=32	=32	=32	=32	=32	=32	=32	=32	=32	=32	=32	=32
!	!	!	!	!	!LO:LB:g=original	!	!	!	!	!	!	!	!	!	!	!	!	!	!	!	!
4B-\	.	.	8f/L]	.	8a-/L	.	2ryy	4B-\	-bil-	4B-\	-bil-	8f\L	-bil-	.	8a-/L	-bil-	.	.	.	.	.
.	.	.	8d/J	.	8f/J	.	.	.	.	.	.	8d\J	.	.	8f/J	.	.	.	.	.	.
4E-\	.	.	4e-/	.	4g/	.	.	4E-\	-la	4B-\	-la	4e-\	-la	.	4g/	-la	.	.	.	.	.
=33	=33	=33	=33	=33	=33	=33	=33	=33	=33	=33	=33	=33	=33	=33	=33	=33	=33	=33	=33	=33	=33
*	*	*	*	*	*	*	*	*	*	*	*ij	*	*	*	*	*	*	*	*	*	*
!LO:LB:g=original	!	!	!	!	!	!	!	!	!	!	!	!	!	!	!	!	!	!	!	!	!
2E-\	.	.	8ee-\L	.	8gg\L	.	2ryy	4E-\	cum	4B-\	cum	4g\	cum	.	4b-\	cum	.	2r	.	2r	.
.	.	.	8b-\	.	8ee-\	.	.	.	.	.	.	.	.	.	.	.	.	.	.	.	.
.	.	.	8g\	.	8b-\	.	.	4E-\	Sy-	4B-\	Sy-	4g\	Sy-	.	4b-\	Sẏ-	.	.	.	.	.
.	.	.	8e-\J	.	8g\J	.	.	.	.	.	.	.	.	.	.	.	.	.	.	.	.
=34	=34	=34	=34	=34	=34	=34	=34	=34	=34	=34	=34	=34	=34	=34	=34	=34	=34	=34	=34	=34	=34
4BB-/	.	.	8g/L	.	8b-/L	.	2ryy	4BB-/	-bil-	4B-\	-bil-	8g\L	-bil-	.	8b-\L	-bil-	.	8g\L	.	8b-\L	.
.	.	.	8f/J	.	8a-/J	.	.	.	.	.	.	8f\J	.	.	8a-\J	.	.	8f\J	.	8a-\J	.
4E-\	.	.	4e-/	.	4g/	.	.	4E-\	-la	4B-\	-la	4e-\	-la	.	4g\	-la	.	4e-\	.	4g\	.
*	*	*	*	*	*	*	*	*	*	*	*Xij	*	*	*	*	*	*	*	*	*	*
=35	=35	=35	=35	=35	=35	=35	=35	=35	=35	=35	=35	=35	=35	=35	=35	=35	=35	=35	=35	=35	=35
2E-\	.	.	4g/	.	8ee-\L	.	2ryy	4E-\	cum	4B-\	cum	4b-\	cum	.	4g/	cum	.	2r	.	2r	.
.	.	.	.	.	8b-\	.	.	.	.	.	.	.	.	.	.	.	.	.	.	.	.
.	.	.	8e-/L	.	8g\	.	.	4e-\	Sy-	4B-\	Sy-	4b-\	Sy-	.	4g/	Sẏ-	.	.	.	.	.
.	.	.	8G/J	.	8e-\J	.	.	.	.	.	.	.	.	.	.	.	.	.	.	.	.
=36	=36	=36	=36	=36	=36	=36	=36	=36	=36	=36	=36	=36	=36	=36	=36	=36	=36	=36	=36	=36	=36
!	!	!	!	!	!	!	!	!LO:LB:g=original	!	!	!	!	!	!	!	!	!	!	!	!	!
4B-\	.	.	8B-/L	.	8g/L	.	2ryy	4B-\	-bil-	4B-\	-bil-	8b-\L	-bil-	.	8g/L	-bil-	.	8b-\L	.	8g\L	.
.	.	.	8A-/J	.	8f/	.	.	.	.	.	.	8a-\J	.	.	8f/J	.	.	8a-\J	.	8f\J	.
4E-\	.	.	4G/	.	8e-/	.	.	4E-\	-la	4B-\	-la.	4g\	-la	.	4e-/	-la	.	4g\	.	4e-\	.
.	.	.	.	.	8b-/J	.	.	.	.	.	.	.	.	.	.	.	.	.	.	.	.
!	!	!	!LO:TX:a:t=vi:rj	!	!	!	!	!	!	!	!	!	!	!	!	!	!	!	!	!	!
=37	=37	=37	=37	=37	=37	=37	=37	=37	=37	=37	=37	=37	=37	=37	=37	=37	=37	=37	=37	=37	=37
!	!	!	!LO:TX:a:t=de	!	!	!	!	!LO:N:vis=00	!	!LO:N:vis=00	!	!LO:N:vis=00	!	!	!LO:N:vis=00	!	!	!LO:N:vis=00	!	!LO:N:vis=00	!
4A-\	.	.	4e-/	.	4ccM\	.	2ryy	0r	.	0r	.	0r	.	.	0r	.	.	0r	.	0r	.
4r	.	.	[4f/	.	8aa-\L	.	.	.	.	.	.	.	.	.	.	.	.	.	.	.	.
.	.	.	.	.	8ff\J	.	.	.	.	.	.	.	.	.	.	.	.	.	.	.	.
=38	=38	=38	=38	=38	=38	=38	=38	=38	=38	=38	=38	=38	=38	=38	=38	=38	=38	=38	=38	=38	=38
4B-\	.	.	4f/]	.	4ddm\	.	2ryy	.	.	.	.	.	.	.	.	.	.	.	.	.	.
4r	.	.	[4g/	.	8bb-\L	.	.	.	.	.	.	.	.	.	.	.	.	.	.	.	.
.	.	.	.	.	8gg\J	.	.	.	.	.	.	.	.	.	.	.	.	.	.	.	.
=39	=39	=39	=39	=39	=39	=39	=39	=39	=39	=39	=39	=39	=39	=39	=39	=39	=39	=39	=39	=39	=39
4c\	.	.	4g/]	.	4ee-M\	.	2ryy	.	.	.	.	.	.	.	.	.	.	.	.	.	.
4r	.	.	8a-/L	.	8ccc\L	.	.	.	.	.	.	.	.	.	.	.	.	.	.	.	.
.	.	.	8f/J	.	8bb-\J	.	.	.	.	.	.	.	.	.	.	.	.	.	.	.	.
=40	=40	=40	=40	=40	=40	=40	=40	=40	=40	=40	=40	=40	=40	=40	=40	=40	=40	=40	=40	=40	=40
8d\L	x 6	.	2f/	.	4.bb-\	.	2ryy	.	.	.	.	.	.	.	.	.	.	.	.	.	.
8B-\	x _	.	.	.	.	.	.	.	.	.	.	.	.	.	.	.	.	.	.	.	.
8c\	.	.	.	.	.	.	.	.	.	.	.	.	.	.	.	.	.	.	.	.	.
8d\J	x -5	.	.	.	8aa-\	.	.	.	.	.	.	.	.	.	.	.	.	.	.	.	.
=41	=41	=41	=41	=41	=41	=41	=41	=41	=41	=41	=41	=41	=41	=41	=41	=41	=41	=41	=41	=41	=41
!	!	!	!	!	!	!	!	!LO:N:vis=00	!	!LO:N:vis=00	!	!LO:N:vis=00	!	!	!LO:N:vis=00	!	!	!LO:N:vis=0	!	!LO:N:vis=0	!
2e-\	.	.	8e-/L	.	8aa-\L	.	2ryy	0r	.	0r	.	0r	.	.	0r	.	.	1r	.	1r	.
.	.	.	8b-/J	.	8gg\	.	.	.	.	.	.	.	.	.	.	.	.	.	.	.	.
.	.	.	4g/	.	8ccc\	.	.	.	.	.	.	.	.	.	.	.	.	.	.	.	.
.	.	.	.	.	8bb-\J	.	.	.	.	.	.	.	.	.	.	.	.	.	.	.	.
=42	=42	=42	=42	=42	=42	=42	=42	=42	=42	=42	=42	=42	=42	=42	=42	=42	=42	=42	=42	=42	=42
8d\L	x 6	.	2f/	.	4.bb-\	.	2ryy	.	.	.	.	.	.	.	.	.	.	.	.	.	.
8B-\	x _	.	.	.	.	.	.	.	.	.	.	.	.	.	.	.	.	.	.	.	.
8c\	.	.	.	.	.	.	.	.	.	.	.	.	.	.	.	.	.	.	.	.	.
8d\J	x -5	.	.	.	8aa-\	.	.	.	.	.	.	.	.	.	.	.	.	.	.	.	.
=43	=43	=43	=43	=43	=43	=43	=43	=43	=43	=43	=43	=43	=43	=43	=43	=43	=43	=43	=43	=43	=43
4e-\	.	.	8e-/L	.	(8gg\L	.	2ryy	.	.	.	.	.	.	.	.	.	.	4r	.	4r	.
.	.	.	8g/J	.	8bb-\)	.	.	.	.	.	.	.	.	.	.	.	.	.	.	.	.
4G\	.	.	4b-/	.	8ee-'\	.	.	.	.	.	.	.	.	.	.	.	.	4e-\	.	4g\	.
.	.	.	.	.	8ee-'\J	.	.	.	.	.	.	.	.	.	.	.	.	.	.	.	.
=44	=44	=44	=44	=44	=44	=44	=44	=44	=44	=44	=44	=44	=44	=44	=44	=44	=44	=44	=44	=44	=44
4A-\	6 5	.	4cc\	.	(8ff\L	.	2ryy	.	.	.	.	.	.	.	.	.	.	4r	.	4r	.
.	.	.	.	.	8aa-\)	.	.	.	.	.	.	.	.	.	.	.	.	.	.	.	.
4B-\	.	.	4f/	.	8dd'\	.	.	.	.	.	.	.	.	.	.	.	.	4B-/	.	4f\	.
.	.	.	.	.	8dd'\J	.	.	.	.	.	.	.	.	.	.	.	.	.	.	.	.
=45	=45	=45	=45	=45	=45	=45	=45	=45	=45	=45	=45	=45	=45	=45	=45	=45	=45	=45	=45	=45	=45
!	!	!	!	!	!	!	!	!LO:N:vis=0	!	!LO:N:vis=0	!	!LO:N:vis=0	!	!	!LO:N:vis=0	!	!	!	!	!	!
4E-\	.	.	8e-/L	.	8gg\L	.	2ryy	1r	.	1r	.	1r	.	.	1r	.	.	4r	.	4r	.
.	.	.	8g/J	.	8bb-\	.	.	.	.	.	.	.	.	.	.	.	.	.	.	.	.
4G\	.	.	4b-/	.	8ee-\	.	.	.	.	.	.	.	.	.	.	.	.	4e-\	.	4g\	.
.	.	.	.	.	8gg\J	.	.	.	.	.	.	.	.	.	.	.	.	.	.	.	.
=46	=46	=46	=46	=46	=46	=46	=46	=46	=46	=46	=46	=46	=46	=46	=46	=46	=46	=46	=46	=46	=46
4A-\	6 5	.	4cc\	.	8ff\L	.	2ryy	.	.	.	.	.	.	.	.	.	.	4r	.	4r	.
.	.	.	.	.	8aa-\	.	.	.	.	.	.	.	.	.	.	.	.	.	.	.	.
4B-\	.	.	4f/	.	8dd\	.	.	.	.	.	.	.	.	.	.	.	.	4B-/	.	4f\	.
.	.	.	.	.	8ff\J	.	.	.	.	.	.	.	.	.	.	.	.	.	.	.	.
=47	=47	=47	=47	=47	=47	=47	=47	=47	=47	=47	=47	=47	=47	=47	=47	=47	=47	=47	=47	=47	=47
!LO:LB:g=original	!	!	!	!	!LO:LB:g=original	!	!	!	!	!	!	!	!	!	!	!	!	!	!	!	!
.	.	.	.	.	8qff/	.	.	.	.	.	.	.	.	.	.	.	.	.	.	.	.
4E-\	.	.	4B-/ 4g	.	8ee-\L	.	2ryy	2r	.	2r	.	2r	.	.	2r	.	.	2G/	.	4e-\	.
.	.	.	.	.	16dd\L	.	.	.	.	.	.	.	.	.	.	.	.	.	.	.	.
.	.	.	.	.	16ee-\JJ	.	.	.	.	.	.	.	.	.	.	.	.	.	.	.	.
4EE-/	.	.	4B-/ 4g	.	4e-/	.	.	.	.	.	.	.	.	.	.	.	.	.	.	4e-\	.
!	!	!	!LO:TX:a:t=ø	!	!	!	!	!	!	!	!	!	!	!	!	!	!	!	!	!	!
=48	=48	=48	=48	=48	=48	=48	=48	=48	=48	=48	=48	=48	=48	=48	=48	=48	=48	=48	=48	=48	=48
!	!	!	!LO:LB:g=original	!	!LO:N:vis=0	!	!	!	!	!LO:LB:g=original	!	!LO:TX:a:t=Tutti:rj	!	!LO:DY:b:Bi:t=fortiſs.	!	!	!	!	!	!	!
!	!	!	!LO:TX:a:t=ø	!	!	!	!	!	!	!	!	!	!	!	!	!	!	!	!	!	!
!LO:N:vis=0	!	!	!LO:N:vis=0	!	!	!	!	!	!	!	!	!	!	!	!LO:TX:a:t=Tutti:rj	!	!	!LO:N:vis=00	!	!LO:N:vis=00	!
1r	.	.	1r	.	1r	.	2ryy	4e-\	Quan-	4e-\	Quan-	4ee-\	Quan-	ff	4ee-'\	Quan-	.	0r	.	0r	.
.	.	.	.	.	.	.	.	4e-\	-tus	4e-\	-tus	4ee-\	-tus	.	4ee-'\	-tus	.	.	.	.	.
=49	=49	=49	=49	=49	=49	=49	=49	=49	=49	=49	=49	=49	=49	=49	=49	=49	=49	=49	=49	=49	=49
.	.	.	.	.	.	.	2ryy	4e-\	tre-	4e-\	tre-	4ee-\	tre-	.	4ee-'\	tre-	.	.	.	.	.
.	.	.	.	.	.	.	.	4E-\	-mor	4E-/	-mor	4e-\	-mor	.	4e-/	-mor	.	.	.	.	.
=50	=50	=50	=50	=50	=50	=50	=50	=50	=50	=50	=50	=50	=50	=50	=50	=50	=50	=50	=50	=50	=50
!	!	!	!	!	!	!	!	!	!	!	!	!LO:LB:g=original	!	!	!LO:LB:g=original	!	!	!	!	!	!
4E-\	.	.	8r	.	8r	.	2ryy	2r	.	4r	.	4r	.	.	4r	.	.	.	.	.	.
!	!	!	!LO:TX:t=P:problem:f = fortiſsime	!LO:DY:b:Bi:t=fortiſsime	!	!LO:DY:Bi:b:t=fortiſsime:rj	!	!	!	!	!	!	!	!	!	!	!	!	!	!	!
.	.	.	8g/L	ff	8ee-'\L	ff	.	.	.	.	.	.	.	.	.	.	.	.	.	.	.
4r	.	.	8g/	.	8ee-'\	.	.	.	.	8B-\	est	8g\	est	.	8ee-\	est	.	.	.	.	.
.	.	.	8g/J	.	8ee-'\J	.	.	.	.	8B-\	fu-	8g\	fu-	.	8ee-\	fu-	.	.	.	.	.
=51	=51	=51	=51	=51	=51	=51	=51	=51	=51	=51	=51	=51	=51	=51	=51	=51	=51	=51	=51	=51	=51
8r	.	.	2g/	.	2ee-\	.	2ryy	4r	.	4B-\	-tu-	4g\	-tu-	.	4ee-\	-tu-	.	.	.	.	.
8e-\L	5 3	.	.	.	.	.	.	.	.	.	.	.	.	.	.	.	.	.	.	.	.
8e-\	_ _	.	.	.	.	.	.	8e-\	est	4B-\	-rus	4g\	-rus	.	4ee-\	-rus	.	.	.	.	.
8e-\J	.	.	.	.	.	.	.	8e-\	fu-	.	.	.	.	.	.	.	.	.	.	.	.
=52	=52	=52	=52	=52	=52	=52	=52	=52	=52	=52	=52	=52	=52	=52	=52	=52	=52	=52	=52	=52	=52
!	!	!	!	!	!	!	!	!	!	!	!	!	!	!	!	!	!	!LO:N:vis=00	!	!LO:N:vis=00	!
2c\	5 x	.	8r	.	8r	.	2ryy	4c\	-tu-	4r	.	4r	.	.	4r	.	.	0r	.	0r	.
.	.	.	8g/L	.	8ee-'\L	.	.	.	.	.	.	.	.	.	.	.	.	.	.	.	.
.	.	.	8g/	.	8ee-'\	.	.	4c\	-rus	8c\	quan-	8g\	quan-	.	8ee-\	quan-	.	.	.	.	.
.	.	.	8g/J	.	8ee-'\J	.	.	.	.	8c\	-do	8g\	-do	.	8ee-\	-do	.	.	.	.	.
=53	=53	=53	=53	=53	=53	=53	=53	=53	=53	=53	=53	=53	=53	=53	=53	=53	=53	=53	=53	=53	=53
8r	5 3	.	2g/	.	2ee-\	.	2ryy	4r	.	4c\	Ju-	4g\	Ju-	.	4ee-\	Ju-	.	.	.	.	.
8c\L	_ _	.	.	.	.	.	.	.	.	.	.	.	.	.	.	.	.	.	.	.	.
8c\	.	.	.	.	.	.	.	8c\	quan-	4c\	-dex	4g\	-dex	.	4ee-\	-dex	.	.	.	.	.
8c\J	.	.	.	.	.	.	.	8c\	-do	.	.	.	.	.	.	.	.	.	.	.	.
=54	=54	=54	=54	=54	=54	=54	=54	=54	=54	=54	=54	=54	=54	=54	=54	=54	=54	=54	=54	=54	=54
!	!	!	!LO:LB:g=original	!	!	!	!	!LO:LB:g=original	!	!	!	!	!	!	!	!	!	!	!	!	!
2An\	6 5	.	8r	.	8r	.	2ryy	4An\	Ju-	4r	.	4r	.	.	4r	.	.	.	.	.	.
.	.	.	8f/L	.	8ee-'\L	.	.	.	.	.	.	.	.	.	.	.	.	.	.	.	.
.	.	.	8f/	.	8ee-'\	.	.	4A\	-dex	8c\	est	8f\	est	.	8ee-\	est	.	.	.	.	.
.	.	.	8f/J	.	8ee-'\J	.	.	.	.	8c\	ven-	8f\	ven-	.	8ee-\	ven-	.	.	.	.	.
=55	=55	=55	=55	=55	=55	=55	=55	=55	=55	=55	=55	=55	=55	=55	=55	=55	=55	=55	=55	=55	=55
8r	6 5	.	2f/	.	2ee-\	.	2ryy	4r	.	4c\	-tu-	4f\	-tu-	.	4ee-\	-tu-	.	.	.	.	.
8An\L	_ _	.	.	.	.	.	.	.	.	.	.	.	.	.	.	.	.	.	.	.	.
8A\	.	.	.	.	.	.	.	8An\	est	4c\	-rus	4f\	-rus	.	4ee-\	-rus	.	.	.	.	.
8A\J	.	.	.	.	.	.	.	8A\	ven-	.	.	.	.	.	.	.	.	.	.	.	.
=56	=56	=56	=56	=56	=56	=56	=56	=56	=56	=56	=56	=56	=56	=56	=56	=56	=56	=56	=56	=56	=56
!	!	!	!	!	!	!	!	!	!	!LO:LB:g=original	!	!	!	!	!	!	!	!LO:N:vis=00	!	!LO:N:vis=00	!
2B-\	- x	.	8r	.	8r	.	2ryy	4B-\	-tu-	4r	.	4r	.	.	4r	.	.	0r	.	0r	.
.	.	.	8f/L	.	8dd-X'\L	.	.	.	.	.	.	.	.	.	.	.	.	.	.	.	.
.	.	.	8f/	.	8dd-'\	.	.	4B-\	-rus	8B-\	cun-	8f\	cun-	.	8dd-X\	cun-	.	.	.	.	.
.	.	.	8f/J	.	8dd-'\J	.	.	.	.	8B-\	-cta	8f\	-cta	.	8dd-\	-cta	.	.	.	.	.
=57	=57	=57	=57	=57	=57	=57	=57	=57	=57	=57	=57	=57	=57	=57	=57	=57	=57	=57	=57	=57	=57
!	!	!	!	!	!LO:SIC:v:s=2dd-\	!	!	!	!	!	!	!	!	!	!LO:LB:g=original	!	!	!	!	!	!
8r	5 -	.	2f/	.	2dd\	.	2ryy	4r	.	4B-\	Stric-	4f\	Stric-	.	4dd-X\	Stric-	.	.	.	.	.
8B-\L	_ _	.	.	.	.	.	.	.	.	.	.	.	.	.	.	.	.	.	.	.	.
8B-\	.	.	.	.	.	.	.	8B-\	cun-	4B-\	-te	4f\	-te	.	4dd-\	-te	.	.	.	.	.
8B-\J	.	.	.	.	.	.	.	8B-\	-cta	.	.	.	.	.	.	.	.	.	.	.	.
=58	=58	=58	=58	=58	=58	=58	=58	=58	=58	=58	=58	=58	=58	=58	=58	=58	=58	=58	=58	=58	=58
!	!	!	!	!	!	!	!	!	!	!	!	!LO:LB:g=original	!	!	!	!	!	!	!	!	!
2G\	.6 -5	.	8r	.	8r	.	2ryy	4G\	Stric-	4r	.	4r	.	.	4r	.	.	.	.	.	.
.	_ _	.	8e-/L	.	8dd-X'\L	.	.	.	.	.	.	.	.	.	.	.	.	.	.	.	.
.	.	.	8e-/	.	8dd-'\	.	.	4G\	-te	8B-\	dis-	8e-\	dis-	.	8dd-X\	dis-	.	.	.	.	.
.	.	.	8e-/J	.	8dd-'\J	.	.	.	.	8B-\	-cu-	8e-\	-cu-	.	8dd-\	-cu-	.	.	.	.	.
=59	=59	=59	=59	=59	=59	=59	=59	=59	=59	=59	=59	=59	=59	=59	=59	=59	=59	=59	=59	=59	=59
!	!	!	!	!	!LO:SIC:v:s=2dd-\	!	!	!	!	!	!	!	!	!	!	!	!	!	!	!	!
8r	6 5	.	2e-/	.	2dd\	.	2ryy	4r	.	4B-\	-su-	4e-\	-su-	.	4dd-X\	-su-	.	.	.	.	.
8G\L	_ _	.	.	.	.	.	.	.	.	.	.	.	.	.	.	.	.	.	.	.	.
8G\	.	.	.	.	.	.	.	8G\	dis-	4B-\	-rus	4e-\	-rus	.	4dd-\	-rus	.	.	.	.	.
8G\J	.	.	.	.	.	.	.	8G\	-cu-	.	.	.	.	.	.	.	.	.	.	.	.
=60	=60	=60	=60	=60	=60	=60	=60	=60	=60	=60	=60	=60	=60	=60	=60	=60	=60	=60	=60	=60	=60
!	!	!	!	!	!	!	!	!	!	!	!	!	!	!	!	!	!	!LO:N:vis=00	!	!LO:N:vis=00	!
2A-\	x x	.	8r	.	8r	.	2ryy	4A-\	-su-	4r	.	4r	.	.	4r	.	.	0r	.	0r	.
.	.	.	8e-/L	.	8cc|\L	.	.	.	.	.	.	.	.	.	.	.	.	.	.	.	.
.	.	.	8e-/	.	8cc|\	.	.	4A-\	-rus	8A-/	Tu-	8e-\	Tu-	.	8cc\	Tu-	.	.	.	.	.
.	.	.	8e-/J	.	8cc|\J	.	.	.	.	8A-/	-ba	8e-\	-ba	.	8cc\	-ba	.	.	.	.	.
=61	=61	=61	=61	=61	=61	=61	=61	=61	=61	=61	=61	=61	=61	=61	=61	=61	=61	=61	=61	=61	=61
!LO:LB:g=original	!	!	!	!	!	!	!	!LO:LB:g=original	!	!	!	!	!	!	!	!	!	!	!	!	!
8r	5 3	.	2e-/	.	2cc\	.	2ryy	4r	.	4A-/	Mi-	4e-\	Mi-	.	4cc\	Mi-	.	.	.	.	.
8A-\L	_ _	.	.	.	.	.	.	.	.	.	.	.	.	.	.	.	.	.	.	.	.
8A-\	.	.	.	.	.	.	.	8A-\	tu-	4A-/	-rum	4e-\	-rum	.	4cc\	-rum	.	.	.	.	.
8A-\J	.	.	.	.	.	.	.	8A-\	-ba	.	.	.	.	.	.	.	.	.	.	.	.
=62	=62	=62	=62	=62	=62	=62	=62	=62	=62	=62	=62	=62	=62	=62	=62	=62	=62	=62	=62	=62	=62
2F\	x x	.	8r	.	8r	.	2ryy	4F\	mi-	4r	.	4r	.	.	4r	.	.	.	.	.	.
.	.	.	8d/L	.	8cc'\L	.	.	.	.	.	.	.	.	.	.	.	.	.	.	.	.
.	.	.	8d/	.	8cc'\	.	.	4F\	-rum	8A-/	Spar-	8d\	Spar-	.	8cc\	Spar-	.	.	.	.	.
.	.	.	8d/J	.	8cc'\J	.	.	.	.	8A-/	-gens	8d\	-gens	.	8cc\	-gens	.	.	.	.	.
=63	=63	=63	=63	=63	=63	=63	=63	=63	=63	=63	=63	=63	=63	=63	=63	=63	=63	=63	=63	=63	=63
!	!	!	!	!	!LO:LB:g=original	!	!	!	!	!	!	!	!	!	!	!	!	!	!	!	!
8r	6 5	.	2d/	.	2cc\	.	2ryy	4r	.	4A-/	So-	4d\	So-	.	4cc\	So-	.	.	.	.	.
8F\L	_ _	.	.	.	.	.	.	.	.	.	.	.	.	.	.	.	.	.	.	.	.
8F\	.	.	.	.	.	.	.	8F\	Spar-	4A-/	-num.	4d\	-num	.	4cc\	-num	.	.	.	.	.
8F\J	.	.	.	.	.	.	.	8F\	-gens	.	.	.	.	.	.	.	.	.	.	.	.
=64	=64	=64	=64	=64	=64	=64	=64	=64	=64	=64	=64	=64	=64	=64	=64	=64	=64	=64	=64	=64	=64
!	!	!	!	!	!	!	!	!	!	!LO:LB:g=original	!	!LO:LB:g=original	!	!	!LO:LB:g=original	!	!	!	!	!	!
2G\	x n	.	2d/	.	8bn/L	.	2ryy	4G\	So-	4G/	per	4d\	per	.	4bn\	per	.	[2G/	.	[2g\	.
.	.	.	.	.	8g/	.	.	.	.	.	.	.	.	.	.	.	.	.	.	.	.
.	.	.	.	.	8d/	.	.	4G\	-num	4G/	Se-	4d\	Se-	.	4b\	Se-	.	.	.	.	.
.	.	.	.	.	8Bny/J	.	.	.	.	.	.	.	.	.	.	.	.	.	.	.	.
=65	=65	=65	=65	=65	=65	=65	=65	=65	=65	=65	=65	=65	=65	=65	=65	=65	=65	=65	=65	=65	=65
!	!	!	!	!	!LO:TX:t=P:problem:mixed beam	!	!	!	!	!	!	!	!	!	!	!	!	!	!	!	!
2G\	_ _	.	2d/	.	8G/L	.	2ryy	4G\	per	4G/	-pul-	4d\	-pul-	.	4bn\	-pul-	.	2G/]	.	2g\_	.
.	.	.	.	.	8bn\J	.	.	.	.	.	.	.	.	.	.	.	.	.	.	.	.
!	!	!	!	!	!LO:TX:a:t=t	!	!	!	!	!	!	!	!	!	!	!	!	!	!	!	!
.	.	.	.	.	4b\	.	.	4G\	Se-	4G/	-chra	4d\	-chra	.	4b\	-chra	[[rum]]	.	.	.	.
=66	=66	=66	=66	=66	=66	=66	=66	=66	=66	=66	=66	=66	=66	=66	=66	=66	=66	=66	=66	=66	=66
!	!	!	!	!	!	!	!	!	!	!	!	!	!	!	!	!	!	!	!	!LO:LB:g=original	!
2G\	6 4	.	2e-/	.	8cc/L	.	2ryy	4G\	-pul-	4G/	re-	4e-\	Re-	.	4cc\	Re-	.	2G/]	.	2g\_	.
.	.	.	.	.	8g/	.	.	.	.	.	.	.	.	.	.	.	.	.	.	.	.
.	.	.	.	.	8e-/	.	.	4G\	-chra	4G/	-gi-	4e-\	-gi-	.	4cc\	-gi-	.	.	.	.	.
.	.	.	.	.	8c/J	.	.	.	.	.	.	.	.	.	.	.	.	.	.	.	.
=67	=67	=67	=67	=67	=67	=67	=67	=67	=67	=67	=67	=67	=67	=67	=67	=67	=67	=67	=67	=67	=67
!	!	!	!	!	!LO:TX:t=P:problem:mixed beam	!	!	!	!	!	!	!	!	!	!	!	!	!	!	!	!
2G\	_ _	.	2e-/	.	8G/L	.	2ryy	8G\	re-	4G/	-o-	4e-\	-o-	.	4cc\	-o-	.	[2G/	.	2g\_	.
.	.	.	.	.	8cc\J	.	.	8G\	-gi-	.	.	.	.	.	.	.	.	.	.	.	.
!	!	!	!	!	!LO:TX:a:t=t	!	!	!	!	!	!	!	!	!	!	!	!	!	!	!	!
.	.	.	.	.	4cc\	.	.	4G\	-o-	4G/	-num	4e-\	-num	.	4cc\	-num	.	.	.	.	.
=68	=68	=68	=68	=68	=68	=68	=68	=68	=68	=68	=68	=68	=68	=68	=68	=68	=68	=68	=68	=68	=68
!	!	!	!LO:LB:g=original	!	!	!	!	!LO:LB:g=original	!	!	!	!	!	!	!	!	!	!	!	!	!
2G\	7 5	.	2f/	.	8dd/L	.	2ryy	4G\	-num	4G/	co-	4f\	co-	.	4dd\	co-	.	2G/_	.	2g\_	.
.	.	.	.	.	8bn/	.	.	.	.	.	.	.	.	.	.	.	.	.	.	.	.
.	.	.	.	.	8f/	.	.	8G\	co-	4G/	-get	4f\	-get	.	4dd\	-get	.	.	.	.	.
.	.	.	.	.	8d/J	.	.	8G\	-get	.	.	.	.	.	.	.	.	.	.	.	.
=69	=69	=69	=69	=69	=69	=69	=69	=69	=69	=69	=69	=69	=69	=69	=69	=69	=69	=69	=69	=69	=69
!	!	!	!	!	!LO:TX:t=P:problem:mixed beam	!	!	!	!	!	!	!	!	!	!	!	!	!	!	!	!
2G\	_ _	.	2f/	.	8G/L	.	2ryy	2G\	om-	2G/	om-	2f\	om-	.	2dd\	om-	.	2G/]	.	2g\]	.
.	.	.	.	.	8dd\J	.	.	.	.	.	.	.	.	.	.	.	.	.	.	.	.
!	!	!	!	!	!LO:TX:a:t=t	!	!	!	!	!	!	!	!	!	!	!	!	!	!	!	!
.	.	.	.	.	4dd\	.	.	.	.	.	.	.	.	.	.	.	.	.	.	.	.
=70	=70	=70	=70	=70	=70	=70	=70	=70	=70	=70	=70	=70	=70	=70	=70	=70	=70	=70	=70	=70	=70
!	!	!	!LO:TX:t=P:problem:mixed beam	!	!	!	!	!	!	!	!	!	!	!	!	!	!	!	!	!	!
8C|>/	x x	.	8g/L	.	8ee-\L	.	2ryy	4C/	-nes.	4G/	-nes	4e-\	-nes	.	4cc\	-nes	.	8G/	.	8g\	.
8r	.	.	8cc\	.	8cc\	.	.	.	.	.	.	.	.	.	.	.	.	8r	.	8r	.
4c|\	.	.	8aa-\	.	8aa-\	.	.	4r	.	4r	.	4r	.	.	4r	.	.	4r	.	4r	.
.	.	.	8ff#X\J	.	8ff#X\J	.	.	.	.	.	.	.	.	.	.	.	.	.	.	.	.
=71	=71	=71	=71	=71	=71	=71	=71	=71	=71	=71	=71	=71	=71	=71	=71	=71	=71	=71	=71	=71	=71
!	!	!	!	!	!	!	!	!LO:LB:g=original	!	!LO:N:vis=0	!	!LO:N:vis=0	!	!	!LO:N:vis=0	!	!	!	!	!	!
!	!	!	!	!	!	!	!	!LO:N:vis=0	!	!	!	!	!	!	!	!	!	!LO:N:vis=00	!	!LO:N:vis=00	!
4Bn\	.	.	8gg\L	.	8gg\L	.	2ryy	1r	.	1r	.	1r	.	.	1r	.	.	0r	.	0r	.
.	.	.	8een\	.	8een\	.	.	.	.	.	.	.	.	.	.	.	.	.	.	.	.
4G|\	.	.	8ffn\	.	8ffn\	.	.	.	.	.	.	.	.	.	.	.	.	.	.	.	.
.	.	.	8dd\J	.	8dd\J	.	.	.	.	.	.	.	.	.	.	.	.	.	.	.	.
=72	=72	=72	=72	=72	=72	=72	=72	=72	=72	=72	=72	=72	=72	=72	=72	=72	=72	=72	=72	=72	=72
8c\	.	.	8ee-\L	.	8ee-\L	.	2ryy	.	.	.	.	.	.	.	.	.	.	.	.	.	.
8r	.	.	8cc\	.	8cc\	.	.	.	.	.	.	.	.	.	.	.	.	.	.	.	.
4c\	.	.	8aa-\	.	8aa-\	.	.	.	.	.	.	.	.	.	.	.	.	.	.	.	.
.	.	.	8ff#X\J	.	8ff#X\J	.	.	.	.	.	.	.	.	.	.	.	.	.	.	.	.
=73	=73	=73	=73	=73	=73	=73	=73	=73	=73	=73	=73	=73	=73	=73	=73	=73	=73	=73	=73	=73	=73
4Bn\	.	.	8gg\L	.	8gg\L	.	2ryy	2r	.	2r	.	2r	.	.	2r	.	.	.	.	.	.
.	.	.	8een\	.	8een\	.	.	.	.	.	.	.	.	.	.	.	.	.	.	.	.
4G\	.	.	8ffn\	.	8ffn\	.	.	.	.	.	.	.	.	.	.	.	.	.	.	.	.
.	.	.	8dd\J	.	8dd\J	.	.	.	.	.	.	.	.	.	.	.	.	.	.	.	.
=74	=74	=74	=74	=74	=74	=74	=74	=74	=74	=74	=74	=74	=74	=74	=74	=74	=74	=74	=74	=74	=74
*	*	*	*	*	*Xtuplet	*	*	*	*	*	*	*	*	*	*	*	*	*	*	*	*
!	!	!	!	!	!LO:TUP:a:problem:klamra łukowa, kropka zamiast numeru	!	!	!	!	!	!	!	!	!	!	!	!	!	!	!	!
4c\	x 5	.	8cc\L	.	12ee-\L	.	2ryy	4c\	an-	4G/	an-	4e-\	an-	.	4cc\	an-	.	.	.	.	.
.	.	.	.	.	12gg\	.	.	.	.	.	.	.	.	.	.	.	.	.	.	.	.
.	.	.	8ee-\J	.	.	.	.	.	.	.	.	.	.	.	.	.	.	.	.	.	.
.	.	.	.	.	12ccc\J	.	.	.	.	.	.	.	.	.	.	.	.	.	.	.	.
*	*	*	*Xtuplet	*	*	*	*	*	*	*	*	*	*	*	*	*	*	*	*	*	*
!	!	!	!LO:TUP:a:problem:klamra łukowa, kropka zamiast numeru	!	!LO:TUP:a:problem:klamra łukowa, kropka zamiast numeru	!	!	!	!	!	!	!	!	!	!	!	!	!	!	!	!
4F\	6 5	.	12ff\L	.	12aa-\L	.	.	4F\	-te	4A-/	-te	4e-\	-te	.	4cc\	-te	.	.	.	.	.
.	.	.	12ee-\	.	12gg\	.	.	.	.	.	.	.	.	.	.	.	.	.	.	.	.
.	.	.	12dd\J	.	12ff\J	.	.	.	.	.	.	.	.	.	.	.	.	.	.	.	.
=75	=75	=75	=75	=75	=75	=75	=75	=75	=75	=75	=75	=75	=75	=75	=75	=75	=75	=75	=75	=75	=75
!	!	!	!	!	!	!	!	!	!	!	!	!	!	!	!	!	!	!LO:N:vis=00	!	!LO:N:vis=00	!
4G\	6 4	.	4cc\	.	4ee-\	.	2ryy	4G\	Thro-	2G/	Thro-	4e-\	Thro-	.	4cc\	Thro-	.	0r	.	0r	.
4GG/	5 n	.	4bn\	.	4dd\	.	.	4GG/	.	.	.	4d\	.	.	4bn\	.	.	.	.	.	.
=76	=76	=76	=76	=76	=76	=76	=76	=76	=76	=76	=76	=76	=76	=76	=76	=76	=76	=76	=76	=76	=76
!	!	!	!	!	!LO:LB:g=original	!	!	!	!	!	!	!LO:LB:g=original	!	!	!	!	!	!	!	!	!
4C/	.	.	4cc\	.	16cc\LL	.	2ryy	4C/	-num	2G/	-num	4e-\	-num,	.	2cc\	-num	.	.	.	.	.
.	.	.	.	.	16ccc\	.	.	.	.	.	.	.	.	.	.	.	.	.	.	.	.
.	.	.	.	.	16ccc\	.	.	.	.	.	.	.	.	.	.	.	.	.	.	.	.
.	.	.	.	.	16ccc\JJ	.	.	.	.	.	.	.	.	.	.	.	.	.	.	.	.
4B-\	4 2	.	4een\	.	16ccc\LL	.	.	4B-\	an-	.	.	8en\	an-	.	.	.	.	.	.	.	.
.	.	.	.	.	16ccc\	.	.	.	.	.	.	.	.	.	.	.	.	.	.	.	.
.	.	.	.	.	16ccc\	.	.	.	.	.	.	8e\	-te	.	.	.	.	.	.	.	.
.	.	.	.	.	16ccc\JJ	.	.	.	.	.	.	.	.	.	.	.	.	.	.	.	.
=77	=77	=77	=77	=77	=77	=77	=77	=77	=77	=77	=77	=77	=77	=77	=77	=77	=77	=77	=77	=77	=77
!	!	!	!	!	!	!	!	!	!	!LO:LB:g=original	!	!	!	!	!LO:LB:g=original	!	!	!	!	!	!
4A-\	x 6	.	8ff\L	.	16cc\LL	.	2ryy	4A-\	.	4.A-/	an-	8f\L	Thro-	.	2cc\	an-	.	.	.	.	.
.	.	.	.	.	16ccc\	.	.	.	.	.	.	.	.	.	.	.	.	.	.	.	.
.	.	.	8een\	.	16ccc\	.	.	.	.	.	.	8en\J	.	.	.	.	.	.	.	.	.
.	.	.	.	.	16ccc\JJ	.	.	.	.	.	.	.	.	.	.	.	.	.	.	.	.
4F\	.	.	8ff\	.	16ccc\LL	.	.	4F\	-te	.	.	8f\L	.	.	.	.	.	.	.	.	.
.	.	.	.	.	16ccc\	.	.	.	.	.	.	.	.	.	.	.	.	.	.	.	.
.	.	.	8aa-\J	.	16ccc\	.	.	.	.	8F/	.	8a-\J	.	.	.	.	.	.	.	.	.
.	.	.	.	.	16ccc\JJ	.	.	.	.	.	.	.	.	.	.	.	.	.	.	.	.
=78	=78	=78	=78	=78	=78	=78	=78	=78	=78	=78	=78	=78	=78	=78	=78	=78	=78	=78	=78	=78	=78
4En\	x 6	.	8gg\L	.	16cc\LL	.	2ryy	4En\	Thro-	4G/	.	8g\L	.	.	2cc\	-te	.	.	.	.	.
.	.	.	.	.	16ccc\	.	.	.	.	.	.	.	.	.	.	.	.	.	.	.	.
.	.	.	8ff\	.	16ccc\	.	.	.	.	.	.	8f\	.	.	.	.	.	.	.	.	.
.	.	.	.	.	16ccc\JJ	.	.	.	.	.	.	.	.	.	.	.	.	.	.	.	.
4G\	x 6n	.	8gg\	.	16cc\LL	.	.	4G\	.	4En/	-te	8g\	.	.	.	.	.	.	.	.	.
.	.	.	.	.	16ccc\	.	.	.	.	.	.	.	.	.	.	.	.	.	.	.	.
.	.	.	8bb-\J	.	16ccc\	.	.	.	.	.	.	8b-\J	.	.	.	.	.	.	.	.	.
.	.	.	.	.	16ccc\JJ	.	.	.	.	.	.	.	.	.	.	.	.	.	.	.	.
=79	=79	=79	=79	=79	=79	=79	=79	=79	=79	=79	=79	=79	=79	=79	=79	=79	=79	=79	=79	=79	=79
!	!	!	!	!	!	!	!	!LO:LB:g=original	!	!	!	!	!	!	!	!	!	!LO:N:vis=0	!	!LO:N:vis=0	!
4F\	.	.	2aa-\	.	16cc\LL	.	2ryy	2F\	-num	2F/	Thro-	2a-\	-num	.	2cc\	Thro-	.	1r	.	1r	.
.	.	.	.	.	16ccc\	.	.	.	.	.	.	.	.	.	.	.	.	.	.	.	.
.	.	.	.	.	16ccc\	.	.	.	.	.	.	.	.	.	.	.	.	.	.	.	.
.	.	.	.	.	16ccc\JJ	.	.	.	.	.	.	.	.	.	.	.	.	.	.	.	.
4FF/	.	.	.	.	16ccc\LL	.	.	.	.	.	.	.	.	.	.	.	.	.	.	.	.
.	.	.	.	.	16ccc\	.	.	.	.	.	.	.	.	.	.	.	.	.	.	.	.
.	.	.	.	.	16ccc\	.	.	.	.	.	.	.	.	.	.	.	.	.	.	.	.
.	.	.	.	.	16ccc\JJ	.	.	.	.	.	.	.	.	.	.	.	.	.	.	.	.
=80	=80	=80	=80	=80	=80	=80	=80	=80	=80	=80	=80	=80	=80	=80	=80	=80	=80	=80	=80	=80	=80
!	!	!	!LO:LB:g=original	!	!	!	!	!	!	!	!	!	!	!	!	!	!	!	!	!	!
4B-\	.	.	2dd\	.	16b-\LL	.	2ryy	4B-\	an-	2F/	-num	4d\	an-	.	2b-\	-num	.	.	.	.	.
.	.	.	.	.	16bb-\	.	.	.	.	.	.	.	.	.	.	.	.	.	.	.	.
.	.	.	.	.	16bb-\	.	.	.	.	.	.	.	.	.	.	.	.	.	.	.	.
.	.	.	.	.	16bb-\JJ	.	.	.	.	.	.	.	.	.	.	.	.	.	.	.	.
4A-\	4 2	.	.	.	16bb-\LL	.	.	4A-\	-te	.	.	4d\	-te	.	.	.	.	.	.	.	.
.	.	.	.	.	16bb-\	.	.	.	.	.	.	.	.	.	.	.	.	.	.	.	.
.	.	.	.	.	16bb-\	.	.	.	.	.	.	.	.	.	.	.	.	.	.	.	.
.	.	.	.	.	16bb-\JJ	.	.	.	.	.	.	.	.	.	.	.	.	.	.	.	.
=81	=81	=81	=81	=81	=81	=81	=81	=81	=81	=81	=81	=81	=81	=81	=81	=81	=81	=81	=81	=81	=81
4G\	.	.	8ee-\L	.	16b-\LL	.	2ryy	4G\	Thro-	4.G/	an-	8e-\L	Thro-	.	4b-\	an-	.	2e-\	.	2g\	.
.	.	.	.	.	16bb-\	.	.	.	.	.	.	.	.	.	.	.	.	.	.	.	.
.	.	.	8dd\	.	16bb-\	.	.	.	.	.	.	8d\	.	.	.	.	.	.	.	.	.
.	.	.	.	.	16bb-\JJ	.	.	.	.	.	.	.	.	.	.	.	.	.	.	.	.
4E-\	.	.	8ee-\	.	16bb-\LL	.	.	4E-\	.	.	.	8e-\	.	.	4b-\	-te	.	.	.	.	.
.	.	.	.	.	16bb-\	.	.	.	.	.	.	.	.	.	.	.	.	.	.	.	.
.	.	.	8gg\J	.	16bb-\	.	.	.	.	8E-X/	.	8g\J	.	.	.	.	.	.	.	.	.
.	.	.	.	.	16bb-\JJ	.	.	.	.	.	.	.	.	.	.	.	.	.	.	.	.
=82	=82	=82	=82	=82	=82	=82	=82	=82	=82	=82	=82	=82	=82	=82	=82	=82	=82	=82	=82	=82	=82
4D\	.	.	8ff\L	.	16b-\LL	.	2ryy	4D\	.	4F/	-te	8f\L	.	.	2b-\	Thro-	.	4B-/	.	4f\	.
.	.	.	.	.	16bb-\	.	.	.	.	.	.	.	.	.	.	.	.	.	.	.	.
.	.	.	8ee-\	.	16bb-\	.	.	.	.	.	.	8e-\	.	.	.	.	.	.	.	.	.
.	.	.	.	.	16bb-\JJ	.	.	.	.	.	.	.	.	.	.	.	.	.	.	.	.
4F\	.	.	8ff\	.	16bb-\LL	.	.	4F\	.	4D/	.	8f\	.	.	.	.	.	4f\	.	4a-\	.
.	.	.	.	.	16bb-\	.	.	.	.	.	.	.	.	.	.	.	.	.	.	.	.
.	.	.	8aa-\J	.	16bb-\	.	.	.	.	.	.	8a-\J	.	.	.	.	.	.	.	.	.
.	.	.	.	.	16bb-\JJ	.	.	.	.	.	.	.	.	.	.	.	.	.	.	.	.
=83	=83	=83	=83	=83	=83	=83	=83	=83	=83	=83	=83	=83	=83	=83	=83	=83	=83	=83	=83	=83	=83
!	!	!	!	!	!LO:LB:g=original	!	!	!	!	!	!	!	!	!	!	!	!	!	!	!	!
4E-\	.	.	2gg\	.	16b-\LL	.	2ryy	2E-\	-num	4E-/	Thro-	2g\	-num	.	2b-\	-num	.	2e-\	.	2g\	.
.	.	.	.	.	16bb-\	.	.	.	.	.	.	.	.	.	.	.	.	.	.	.	.
.	.	.	.	.	16bb-\	.	.	.	.	.	.	.	.	.	.	.	.	.	.	.	.
.	.	.	.	.	16bb-\JJ	.	.	.	.	.	.	.	.	.	.	.	.	.	.	.	.
4EE-/	.	.	.	.	16bb-\LL	.	.	.	.	4E-/	-num	.	.	.	.	.	.	.	.	.	.
.	.	.	.	.	16bb-\	.	.	.	.	.	.	.	.	.	.	.	.	.	.	.	.
.	.	.	.	.	16bb-\	.	.	.	.	.	.	.	.	.	.	.	.	.	.	.	.
.	.	.	.	.	16bb-\JJ	.	.	.	.	.	.	.	.	.	.	.	.	.	.	.	.
=84	=84	=84	=84	=84	=84	=84	=84	=84	=84	=84	=84	=84	=84	=84	=84	=84	=84	=84	=84	=84	=84
2BB-'/	.	.	8r	.	8r	.	2ryy	4BB-/	an-	4r	.	4b-\	an-	.	4r	.	.	8r	.	8r	.
.	.	.	8ff|\L	.	8aa-|\L	.	.	.	.	.	.	.	.	.	.	.	.	8f\L	.	8a-|\L	.
.	.	.	(8ff\	.	(8aa-\	.	.	4BB-/	-te	8f\	an-	4b-\	-te	.	8aa-\	an-	.	8f\	.	(8a-\	.
.	.	.	8ee-\J)	.	8gg\J)	.	.	.	.	8e-\	-te	.	.	.	8gg\	-te	.	8e-\J	.	8g\J)	.
=85	=85	=85	=85	=85	=85	=85	=85	=85	=85	=85	=85	=85	=85	=85	=85	=85	=85	=85	=85	=85	=85
4BB-|/	.	.	(8ee-\L	.	(8gg\L	.	2ryy	4BB-/	Thro-	8e-\L	Thro-	4b-\	Thro-	.	8gg\L	Thro-	.	4B-/	.	(8g\L	.
.	.	.	8dd\J)	.	8ff\J)	.	.	.	.	8d\J	.	.	.	.	8ff\J	.	.	.	.	8f\J)	.
4BB-|/	.	.	4dd|\	.	4ff\	.	.	4BB-/	-num	4d\	-num	4b-\	-num	.	4ff\	-num	.	4B-/	.	4f|\	.
=86	=86	=86	=86	=86	=86	=86	=86	=86	=86	=86	=86	=86	=86	=86	=86	=86	=86	=86	=86	=86	=86
*	*	*	*	*	*	*	*	*	*ij	*	*	*	*	*	*	*	*	*	*	*	*
!	!	!	!	!	!	!	!	!	!	!	!	!LO:LB:g=original	!	!	!	!	!	!	!	!	!
2E-|\	.	.	8r	.	8r	.	2ryy	4E-\	an-	4r	.	4b-\	an-	.	4r	.	.	8r	.	8r	.
!	!	!	!	!	!	!	!	!	!	!	!	!	!	!	!	!	!	!LO:TX:t=P:problem:mixed beam	!	!	!
.	.	.	8b-|/L	.	8gg|\L	.	.	.	.	.	.	.	.	.	.	.	.	8e-\L	.	8g\L	.
*	*	*	*	*	*	*	*	*	*	*	*ij	*	*	*	*	*	*	*	*	*	*
.	.	.	(8b-/	.	(8gg\	.	.	4E-\	-te	8B-/	an-	4b-\	-te	.	8gg\	an-	.	8e-\	.	8g\	.
.	.	.	8a-/J)	.	8ff\J)	.	.	.	.	8A-/	-te	.	.	.	8ff\	-te	.	8B-/J	.	8f\J	.
=87	=87	=87	=87	=87	=87	=87	=87	=87	=87	=87	=87	=87	=87	=87	=87	=87	=87	=87	=87	=87	=87
4E-|\	.	.	(8a-/L	.	(8ff\L	.	2ryy	4E-\	Thro-	8A-/L	Thro-	4b-\	Thro-	.	8ff\L	Thro-	.	4G/	.	8f\L	.
.	.	.	8g/J)	.	8ee-\J)	.	.	.	.	8G/J	.	.	.	.	8ee-\J	.	.	.	.	8e-\J	.
4E-|\	.	.	4g|/	.	4ee-\	.	.	4E-\	-num	4G/	-num	4b-\	-num	.	4ee-\	-num	.	4G/	.	4e-\	.
*	*	*	*	*	*	*	*	*	*Xij	*	*Xij	*	*	*	*	*	*	*	*	*	*
=88	=88	=88	=88	=88	=88	=88	=88	=88	=88	=88	=88	=88	=88	=88	=88	=88	=88	=88	=88	=88	=88
!LO:LB:g=original	!	!	!	!	!	!	!	!	!	!LO:LB:g=original	!	!	!	!	!LO:LB:g=original	!	!	!	!	!	!
2BB-|>/	.	.	8r	.	8r	.	2ryy	4BB-/	an-	2B-\	an-	4r	.	.	4r	.	.	8r	.	8r	.
.	.	.	8f|/L	.	8a-|/L	.	.	.	.	.	.	.	.	.	.	.	.	8f\L	.	8a-\L	.
.	.	.	(8f/	.	(8a-/	.	.	4BB-/	-te	.	.	8f\	an-	.	8a-/	an-	.	8f\	.	8a-\	.
.	.	.	8e-/J)	.	8g/J)	.	.	.	.	.	.	8e-\	-te	.	8g/	-te	.	8e-\J	.	8g\J	.
=89	=89	=89	=89	=89	=89	=89	=89	=89	=89	=89	=89	=89	=89	=89	=89	=89	=89	=89	=89	=89	=89
!	!	!	!	!	!	!	!	!LO:LB:g=original	!	!	!	!	!	!	!	!	!	!	!	!LO:LB:g=original	!
4BB-'>/	.	.	(8e-/L	.	(8g/L	.	2ryy	4BB-/	Thro-	2B-\	-te	8e-\L	Thro-	.	8g/L	Thro-	.	4B-/	.	8g\L	.
.	.	.	8d/J)	.	8f/J)	.	.	.	.	.	.	8d\J	.	.	8f/J	.	.	.	.	8f\J	.
4BB-'>/	.	.	4d|/	.	4f/	.	.	4BB-/	-num	.	.	4d\	-num	.	4f/	-num	.	4B-/	.	4f\	.
=90	=90	=90	=90	=90	=90	=90	=90	=90	=90	=90	=90	=90	=90	=90	=90	=90	=90	=90	=90	=90	=90
2E-|\	.	.	8r	.	8r	.	2ryy	4E-\	An-	2B-\	Thro-	4r	.	.	4r	.	.	8r	.	8r	.
.	.	.	8B-|/L	.	8g/L	.	.	.	.	.	.	.	.	.	.	.	.	8e-\L	.	8g\L	.
*	*	*	*	*	*	*	*	*	*	*	*	*	*ij	*	*	*	*	*	*	*	*
.	.	.	(8B-/	.	8g/	.	.	4E-\	-te	.	.	8b-\	an-	.	8g/	an-	.	8e-\	.	8g\	.
.	.	.	8A-/J)	.	8f/J	.	.	.	.	.	.	8a-\	-te	.	8f/	-te	.	8B-\J	.	8f\J	.
=91	=91	=91	=91	=91	=91	=91	=91	=91	=91	=91	=91	=91	=91	=91	=91	=91	=91	=91	=91	=91	=91
4E-|\	.	.	(8A-/L	.	8f/L	.	2ryy	4E-\	Thro-	2B-\	-num	8a-\L	Thro-	.	8f/L	Thro-	.	4G/	.	8f\L	.
.	.	.	8G/J)	.	8e-/J	.	.	.	.	.	.	8g\J	.	.	8e-/J	.	.	.	.	8e-\J	.
4E-|\	.	.	4G|/	.	4e-/	.	.	4E-\	-num	.	.	4g\	-num	.	4e-/	-num	.	4G/	.	4e-\	.
*	*	*	*	*	*	*	*	*	*	*	*	*	*Xij	*	*	*	*	*	*	*	*
=92	=92	=92	=92	=92	=92	=92	=92	=92	=92	=92	=92	=92	=92	=92	=92	=92	=92	=92	=92	=92	=92
!	!	!	!LO:LB:g=original	!	!	!	!	!LO:N:vis=00	!	!LO:N:vis=00	!	!LO:N:vis=00	!	!	!LO:N:vis=00	!	!	!LO:TX:a:t=5	!	!LO:N:vis=00	!
!	!	!	!	!	!	!	!	!	!	!	!	!	!	!	!	!	!	!LO:N:vis=00	!	!	!
4r	.	.	8a-\L	.	8cc\L	.	2ryy	0r	.	0r	.	0r	.	.	0r	.	.	0r	.	0r	.
.	.	.	8cc\	.	8aa-\	.	.	.	.	.	.	.	.	.	.	.	.	.	.	.	.
4A-\	x 6	.	8b-\	.	8gg\	.	.	.	.	.	.	.	.	.	.	.	.	.	.	.	.
.	.	.	8a-\J	.	8ff\J	.	.	.	.	.	.	.	.	.	.	.	.	.	.	.	.
=93	=93	=93	=93	=93	=93	=93	=93	=93	=93	=93	=93	=93	=93	=93	=93	=93	=93	=93	=93	=93	=93
4G\	x 7	.	8a-/L	.	8ff\L	.	2ryy	.	.	.	.	.	.	.	.	.	.	.	.	.	.
.	x 6	.	8g/J	.	8ee-\J	.	.	.	.	.	.	.	.	.	.	.	.	.	.	.	.
4G\	.	.	4g/	.	4ee-\	.	.	.	.	.	.	.	.	.	.	.	.	.	.	.	.
=94	=94	=94	=94	=94	=94	=94	=94	=94	=94	=94	=94	=94	=94	=94	=94	=94	=94	=94	=94	=94	=94
4F\	.	.	8ff\L	.	8aa-\L	.	2ryy	.	.	.	.	.	.	.	.	.	.	.	.	.	.
.	.	.	8aa-\	.	8ccc\	.	.	.	.	.	.	.	.	.	.	.	.	.	.	.	.
4D\	.	.	8gg\	.	8bb-\	.	.	.	.	.	.	.	.	.	.	.	.	.	.	.	.
.	.	.	8ff\J	.	8aa-\J	.	.	.	.	.	.	.	.	.	.	.	.	.	.	.	.
=95	=95	=95	=95	=95	=95	=95	=95	=95	=95	=95	=95	=95	=95	=95	=95	=95	=95	=95	=95	=95	=95
.	.	.	8qqff/	.	8qqaa-/	.	.	.	.	.	.	.	.	.	.	.	.	.	.	.	.
4E-\	9 4	.	4ee-\	.	4gg\	.	2ryy	.	.	.	.	.	.	.	.	.	.	.	.	.	.
.	8 3	.	.	.	.	.	.	.	.	.	.	.	.	.	.	.	.	.	.	.	.
4G\	x 6	.	4b-|>/	.	4ee-\	.	.	.	.	.	.	.	.	.	.	.	.	.	.	.	.
=96	=96	=96	=96	=96	=96	=96	=96	=96	=96	=96	=96	=96	=96	=96	=96	=96	=96	=96	=96	=96	=96
!	!	!	!	!	!LO:LB:g=original	!	!	!	!	!	!	!	!	!	!	!	!	!	!	!	!
4A-\	6 4	.	8e-/L	.	8cc\L	.	2ryy	2r	.	2r	.	2r	.	.	2r	.	.	2r	.	2r	.
.	.	.	8a-/	.	8ff\	.	.	.	.	.	.	.	.	.	.	.	.	.	.	.	.
4r	5 3	.	8cc/	.	8aa-\	.	.	.	.	.	.	.	.	.	.	.	.	.	.	.	.
.	.	.	8a-/J	.	8ff\J	.	.	.	.	.	.	.	.	.	.	.	.	.	.	.	.
=97	=97	=97	=97	=97	=97	=97	=97	=97	=97	=97	=97	=97	=97	=97	=97	=97	=97	=97	=97	=97	=97
!	!	!	!	!	!	!	!	!	!	!	!	!	!	!	!	!	!	!LO:PB:g=original	!	!	!
.	.	.	8qqa-/	.	8qqff/	.	.	.	.	.	.	8qqa-/	.	.	8qqee-/	.	.	.	.	.	.
4B-\	.	.	4g/	.	4ee-\	.	2ryy	4B-\	Thro-	2B-\	Thro-	4g\	Thro-	.	4ee-\	Thro-	.	4e-\	.	4g\	.
.	.	.	8qqg/	.	8qqee-/	.	.	.	.	.	.	8qqg/	.	.	8qqee-/	.	.	.	.	.	.
4BB-/	.	.	4f/	.	4dd\	.	.	4BB-/	.	.	.	4f\	.	.	4dd\	.	.	4B-/	.	4f\	.
!LO:TX:a:t=vi:rj	!	!	!	!	!	!	!	!	!	!	!	!	!	!	!	!	!	!	!	!	!
=98	=98	=98	=98	=98	=98	=98	=98	=98	=98	=98	=98	=98	=98	=98	=98	=98	=98	=98	=98	=98	=98
!LO:PB:g=original	!	!	!	!	!	!	!	!	!	!	!	!	!	!	!	!	!	!	!	!	!
!LO:TX:a:t=de	!	!	!	!	!LO:PB:g=original	!	!	!	!	!	!	!	!	!	!	!	!	!	!	!	!
.	.	.	.	.	8qqff	.	.	.	.	.	.	.	.	.	.	.	.	.	.	.	.
!LO:TX:a:t=Solo	!	!	!	!	!	!	!	!	!	!	!	!	!	!	!	!	!	!	!	!	!
4E-\	.	.	4g/	.	8ee-\L	.	2ryy	4E-\	-num	4B-\	-num	4g\	-num	.	4ee-\	-num	.	4G/	.	4e-\	.
.	.	.	.	.	16dd\L	.	.	.	.	.	.	.	.	.	.	.	.	.	.	.	.
.	.	.	.	.	16ee-\JJ	.	.	.	.	.	.	.	.	.	.	.	.	.	.	.	.
!	!	!	!	!	!	!	!	!	!	!LO:TX:a:t=vi	!	!	!	!	!	!	!	!	!	!	!
4r	.	.	4r	.	4e-/	.	.	4r	.	4r	.	4r	.	.	4r	.	.	4r	.	4r	.
!	!	!	!	!	!	!	!	!LO:TX:a:t=vi:rj	!	!	!	!	!	!	!	!	!	!	!	!	!
=99	=99	=99	=99	=99	=99	=99	=99	=99	=99	=99	=99	=99	=99	=99	=99	=99	=99	=99	=99	=99	=99
!	!	!	!LO:TX:a:t=Solo	!	!	!	!	!LO:PB:g=original	!	!	!	!LO:PB:g=original	!	!	!LO:PB:g=original	!	!	!	!	!	!
!	!	!	!LO:PB:g=original	!	!	!	!	!LO:TX:a:t=de.	!	!LO:TX:a:t=de	!	!LO:TX:a:t=12.	!	!	!LO:TX:a:t=Solo	!	!	!	!	!	!
!	!	!	!LO:N:vis=00	!	!	!LO:DY:b:Bi:t=pia:rj	!	!LO:N:vis=00	!	!LO:N:vis=00	!	!LO:N:vis=00	!	!	!	!	!	!LO:N:vis=00	!	!LO:N:vis=00	!
4r	.	.	0r	.	4b-\	p	2ryy	0r	.	0r	.	0r	.	.	4b-\	qui	.	0r	.	0r	.
!	!	!LO:DY:Bi:b:t=pia.	!	!	!	!	!	!	!	!	!	!	!	!	!	!	!	!	!	!	!
4e-|\	.	p	.	.	4gg\	.	.	.	.	.	.	.	.	.	4gg\	Ma-	.	.	.	.	.
=100	=100	=100	=100	=100	=100	=100	=100	=100	=100	=100	=100	=100	=100	=100	=100	=100	=100	=100	=100	=100	=100
4d|\	.	.	.	.	8gg\L	.	2ryy	.	.	.	.	.	.	.	8gg\L	-ri-	.	.	.	.	.
.	.	.	.	.	8ff\	.	.	.	.	.	.	.	.	.	8ff\J	.	.	.	.	.	.
4B-'\	.	.	.	.	8ee-\	.	.	.	.	.	.	.	.	.	8ee-\L	-am	.	.	.	.	.
.	.	.	.	.	8dd\J	.	.	.	.	.	.	.	.	.	8dd\J	.	.	.	.	.	.
=101	=101	=101	=101	=101	=101	=101	=101	=101	=101	=101	=101	=101	=101	=101	=101	=101	=101	=101	=101	=101	=101
4F'\	.	.	.	.	4cc\	.	2ryy	.	.	.	.	.	.	.	4cc\	ab-	.	.	.	.	.
4An'\	.	.	.	.	4ff\	.	.	.	.	.	.	.	.	.	4ff\	-sol-	.	.	.	.	.
=102	=102	=102	=102	=102	=102	=102	=102	=102	=102	=102	=102	=102	=102	=102	=102	=102	=102	=102	=102	=102	=102
!	!	!	!	!	!	!	!	!	!	!	!	!	!	!	!	!LO:SIC:v:l:s=-vi-	!	!	!	!	!
4B-'\	.	.	.	.	4b-\	.	2ryy	.	.	.	.	.	.	.	4b-\	-viſ-	.	.	.	.	.
4r	.	.	.	.	4B-/	.	.	.	.	.	.	.	.	.	4b-\	-sti	.	.	.	.	.
=103	=103	=103	=103	=103	=103	=103	=103	=103	=103	=103	=103	=103	=103	=103	=103	=103	=103	=103	=103	=103	=103
!	!	!	!	!LO:DY:b:Bi:t=pia&colon;:rj	!LO:N:vis=00	!	!	!LO:TX:a:t=Solo	!	!LO:N:vis=00	!	!LO:N:vis=00	!	!	!LO:N:vis=00	!	!	!LO:N:vis=00	!	!LO:N:vis=00	!
4r	.	.	4e-/	p	0r	.	2ryy	4E-\	et	0r	.	0r	.	.	0r	.	.	0r	.	0r	.
4A-X'\	.	.	4cc\	.	.	.	.	4c\	la-	.	.	.	.	.	.	.	.	.	.	.	.
=104	=104	=104	=104	=104	=104	=104	=104	=104	=104	=104	=104	=104	=104	=104	=104	=104	=104	=104	=104	=104	=104
4G'\	.	.	8cc/L	.	.	.	2ryy	8c\L	-tro-	.	.	.	.	.	.	.	.	.	.	.	.
.	.	.	8b-/	.	.	.	.	8B-\J	.	.	.	.	.	.	.	.	.	.	.	.	.
4E-'\	.	.	8a-/	.	.	.	.	8A-\L	-nem	.	.	.	.	.	.	.	.	.	.	.	.
.	.	.	8g/J	.	.	.	.	8G\J	.	.	.	.	.	.	.	.	.	.	.	.	.
=105	=105	=105	=105	=105	=105	=105	=105	=105	=105	=105	=105	=105	=105	=105	=105	=105	=105	=105	=105	=105	=105
4BB-'>/	.	.	4f/	.	.	.	2ryy	4F\	ex-	.	.	.	.	.	.	.	.	.	.	.	.
4D'>/	.	.	4b-/	.	.	.	.	4B-\	-au-	.	.	.	.	.	.	.	.	.	.	.	.
=106	=106	=106	=106	=106	=106	=106	=106	=106	=106	=106	=106	=106	=106	=106	=106	=106	=106	=106	=106	=106	=106
!	!	!	!	!	!	!	!	!LO:SIC:v:l:s=-di-	!	!	!	!	!	!	!	!	!	!	!	!	!
4E-'\	.	.	2e-/	.	.	.	2ryy	4E-\	-diſ-	.	.	.	.	.	.	.	.	.	.	.	.
4r	.	.	.	.	.	.	.	4E-\	-sti	.	.	.	.	.	.	.	.	.	.	.	.
=107	=107	=107	=107	=107	=107	=107	=107	=107	=107	=107	=107	=107	=107	=107	=107	=107	=107	=107	=107	=107	=107
!	!	!	!LO:N:vis=00	!	!	!	!	!LO:N:vis=00	!	!LO:TX:a:t=Solo:rj	!	!LO:N:vis=00	!	!	!LO:N:vis=00	!	!	!LO:N:vis=00	!	!LO:N:vis=00	!
4r	.	.	0r	.	4b-\	.	2ryy	0r	.	4B-\	mi-	0r	.	.	0r	.	.	0r	.	0r	.
4e-'\	.	.	.	.	4gg\	.	.	.	.	4g\	-hi	.	.	.	.	.	.	.	.	.	.
=108	=108	=108	=108	=108	=108	=108	=108	=108	=108	=108	=108	=108	=108	=108	=108	=108	=108	=108	=108	=108	=108
4d'\	.	.	.	.	8gg\L	.	2ryy	.	.	8g\L	quo-	.	.	.	.	.	.	.	.	.	.
.	.	.	.	.	8ff\	.	.	.	.	8f\J	.	.	.	.	.	.	.	.	.	.	.
4B-'\	.	.	.	.	8ee-\	.	.	.	.	8e-\L	-que	.	.	.	.	.	.	.	.	.	.
.	.	.	.	.	8dd\J	.	.	.	.	8d\J	.	.	.	.	.	.	.	.	.	.	.
=109	=109	=109	=109	=109	=109	=109	=109	=109	=109	=109	=109	=109	=109	=109	=109	=109	=109	=109	=109	=109	=109
4F'\	.	.	.	.	4cc\	.	2ryy	.	.	4c\	Spem	.	.	.	.	.	.	.	.	.	.
4An'\	.	.	.	.	4ff\	.	.	.	.	4f\	de-	.	.	.	.	.	.	.	.	.	.
=110	=110	=110	=110	=110	=110	=110	=110	=110	=110	=110	=110	=110	=110	=110	=110	=110	=110	=110	=110	=110	=110
!	!	!	!	!	!	!	!	!	!	!LO:SIC:v:l:s=-di-	!	!	!	!	!	!	!	!	!	!	!
4B-\	.	.	.	.	4b-\	.	2ryy	.	.	4B-\	-diſ-	.	.	.	.	.	.	.	.	.	.
4r	.	.	.	.	4B-/	.	.	.	.	4B-\	-sti	.	.	.	.	.	.	.	.	.	.
=111	=111	=111	=111	=111	=111	=111	=111	=111	=111	=111	=111	=111	=111	=111	=111	=111	=111	=111	=111	=111	=111
!	!	!	!	!	!LO:N:vis=00	!	!	!LO:N:vis=00	!	!LO:N:vis=00	!	!LO:TX:a:t=Solo:rj	!	!	!LO:N:vis=00	!	!	!	!	!LO:N:vis=00	!
4r	.	.	4e-/	.	0r	.	2ryy	0r	.	0r	.	4e-\	mi-	.	0r	.	.	0r	.	0r	.
4A-X\	.	.	4cc/	.	.	.	.	.	.	.	.	4cc\	-hi	.	.	.	.	.	.	.	.
=112	=112	=112	=112	=112	=112	=112	=112	=112	=112	=112	=112	=112	=112	=112	=112	=112	=112	=112	=112	=112	=112
!LO:LB:g=original	!	!	!	!	!	!	!	!	!	!	!	!	!	!	!	!	!	!	!	!	!
4G'\	.	.	8cc/L	.	.	.	2ryy	.	.	.	.	8cc\L	quo-	.	.	.	.	.	.	.	.
.	.	.	8b-/	.	.	.	.	.	.	.	.	8b-\J	.	.	.	.	.	.	.	.	.
4E-'\	.	.	8a-/	.	.	.	.	.	.	.	.	8a-\L	-que	.	.	.	.	.	.	.	.
.	.	.	8g/J	.	.	.	.	.	.	.	.	8g\J	.	.	.	.	.	.	.	.	.
=113	=113	=113	=113	=113	=113	=113	=113	=113	=113	=113	=113	=113	=113	=113	=113	=113	=113	=113	=113	=113	=113
4BB-'>/	.	.	4f/	.	.	.	2ryy	.	.	.	.	4f\	spem	.	.	.	.	.	.	.	.
4D'>\	.	.	4b-/	.	.	.	.	.	.	.	.	4b-\	de-	.	.	.	.	.	.	.	.
=114	=114	=114	=114	=114	=114	=114	=114	=114	=114	=114	=114	=114	=114	=114	=114	=114	=114	=114	=114	=114	=114
!	!	!	!LO:TX:a:t=Tutti	!	!	!	!	!	!	!	!	!LO:SIC:v:l:s=-di-	!	!	!	!	!	!	!	!	!
4E-'\	.	.	2e-/	.	.	.	2ryy	.	.	.	.	4e-\	-diſ-	.	.	.	.	.	.	.	.
4r	.	.	.	.	.	.	.	.	.	.	.	4e-\	-sti	.	.	.	.	.	.	.	.
=115	=115	=115	=115	=115	=115	=115	=115	=115	=115	=115	=115	=115	=115	=115	=115	=115	=115	=115	=115	=115	=115
*	*	*	*tremolo	*	*	*	*	*	*	*	*	*	*	*	*	*	*	*	*	*	*
!LO:TX:a:t=Tutti	!	!	!	!	!	!	!	!	!	!	!	!	!	!	!	!	!	!	!	!LO:TX:a:t=Tutti	!
!	!	!LO:DY:Bi:b:t=for:rj	!	!LO:DY:b:Bi:t=for:rj	!	!	!	!LO:TX:a:t=Tutti	!	!LO:TX:a:t=Tutti	!	!LO:TX:a:t=Tutti	!	!	!LO:TX:a:t=Tutti	!	!	!	!	!	!LO:DY:b:Bi:t=for
8G\L	x 6	f	8e-/L	f	8r	.	2ryy	4E-\	Hu-	4B-\	Hu-	4g\	Hu-	.	4ee-\	Hu-	.	2E-/	.	2e-\	f
!	!	!	!	!	!LO:TX:a:t=Tutti	!LO:DY:b:Bi:t=for	!	!	!	!	!	!	!	!	!	!	!	!	!	!	!
8E-\	.	.	8e-/	.	8ee-\L	f	.	.	.	.	.	.	.	.	.	.	.	.	.	.	.
8G\	.	.	8e-/	.	8dd\	.	.	4G\	-ic	4B-\	-ič	4g\	-ic	.	4ee-\	-ic	.	.	.	.	.
8E-\J	.	.	8e-/J	.	8ee-\J	.	.	.	.	.	.	.	.	.	.	.	.	.	.	.	.
!	!	!	!	!	!	!	!	!	!	!	!	!	!	!	!	!	!	!	!	!LO:TX:b:t=V&colon;S.:rj	!
=116	=116	=116	=116	=116	=116	=116	=116	=116	=116	=116	=116	=116	=116	=116	=116	=116	=116	=116	=116	=116	=116
!	!	!	!	!	!	!	!	!	!	!	!	!	!	!	!	!	!	!	!	!LO:PB:g=original	!
.	.	.	.	.	8qqdd/	.	.	.	.	.	.	.	.	.	8qqdd/	.	.	.	.	.	.
8A-\L	x 5	.	8e-/L	.	4cc\	.	2ryy	4A-\	er-	4e-\	er-	4a-\	er-	.	4cc\	er-	.	2E-/	.	2e-\	.
8E-\	x _	.	8e-/	.	.	.	.	.	.	.	.	.	.	.	.	.	.	.	.	.	.
8A-\	.	.	8e-/	.	[4cc\	.	.	4A-\	-go	4e-\	-go	4a-\	-go	.	4cc\	-go	.	.	.	.	.
8E-\J	.	.	8e-/J	.	.	.	.	.	.	.	.	.	.	.	.	.	.	.	.	.	.
=117	=117	=117	=117	=117	=117	=117	=117	=117	=117	=117	=117	=117	=117	=117	=117	=117	=117	=117	=117	=117	=117
8A-\L	x x	.	8e-/L	.	8cc\L]	.	2ryy	4A-\	par-	4e-\	par-	8a-\L	par-	.	8cc\L	par-	.	2E-/	.	2e-\	.
8E-\	.	.	8e-/	.	8ee-\	.	.	.	.	.	.	8cc\J	.	.	8ee-\J	.	.	.	.	.	.
8A-\	.	.	8e-/	.	8dd\	.	.	4A-\	-ce	4e-\	-ce	8b-\L	-ce	.	8dd\L	-ce	.	.	.	.	.
8E-\J	.	.	8e-/J	.	8cc\J	.	.	.	.	.	.	8a-\J	.	.	8cc\J	.	.	.	.	.	.
=118!|:	=118!|:	=118	=118	=118	=118	=118	=118	=118	=118	=118	=118	=118	=118	=118	=118	=118	=118	=118	=118	=118	=118
!	!	!	!	!	!LO:LB:g=original	!	!	!LO:LB:g=original	!	!	!	!	!	!	!	!	!	!	!	!	!
.	.	.	.	.	8qqcc/	.	.	.	.	.	.	.	.	.	8qqcc/	.	.	.	.	.	.
8G\L	x 6	.	8e-/L	.	4b-\	.	2ryy	4E-\	De-	4e-\	de-	4g\	De-	.	4b-\	De-	.	2E-/	.	2e-\	.
8E-\	x _	.	8e-/	.	.	.	.	.	.	.	.	.	.	.	.	.	.	.	.	.	.
8G\	.	.	8e-/	.	[4b-\	.	.	4E-\	-us	4e-\	-us	4g\	-us.	.	4b-\	-us	.	.	.	.	.
8E-\J	.	.	8e-/J	.	.	.	.	.	.	.	.	.	.	.	.	.	.	.	.	.	.
=119:|!	=119:|!	=119	=119	=119	=119	=119	=119	=119	=119	=119	=119	=119	=119	=119	=119	=119	=119	=119	=119	=119	=119
!LO:TX:t=P:problem:t.119 zapisany jako repetycja	!	!	!LO:LB:g=original	!	!	!	!	!	!	!LO:LB:g=original	!	!LO:LB:g=original	!	!	!LO:LB:g=original	!	!	!	!	!	!
8G\Lyy	x 6	.	8e-/L	.	8b-\L]	.	2ryy	4E-\	pi-	4e-\	pi-	4g\	pi-	.	4b-\	pi-	.	2E-/	.	2e-\	.
8E-\yy	x _	.	8e-/	.	8ee-\	.	.	.	.	.	.	.	.	.	.	.	.	.	.	.	.
8G\yy	.	.	8e-/	.	8dd\	.	.	4G\	-e	4B-\	-e	4g\	-e	.	4ee-\	-e	.	.	.	.	.
8E-\Jyy	.	.	8e-/J	.	8ee-\J	.	.	.	.	.	.	.	.	.	.	.	.	.	.	.	.
=120	=120	=120	=120	=120	=120	=120	=120	=120	=120	=120	=120	=120	=120	=120	=120	=120	=120	=120	=120	=120	=120
2A-\	x x	.	8b-/L	.	8dd\L	.	2ryy	4A-\	Je-	4A-\	Je-	8b-\L	Je-	.	8dd\L	Je-	.	2r	.	2r	.
.	.	.	8a-/	.	8cc\	.	.	.	.	.	.	8a-\J	.	.	8cc\J	.	.	.	.	.	.
.	.	.	8g/	.	8b-\	.	.	4A-\	-sŭ	4c\	-su	8g\L	-su	.	8b-\L	-su	.	.	.	.	.
.	.	.	8f/J	.	8a-\J	.	.	.	.	.	.	8f\J	.	.	8a-\J	.	.	.	.	.	.
=121	=121	=121	=121	=121	=121	=121	=121	=121	=121	=121	=121	=121	=121	=121	=121	=121	=121	=121	=121	=121	=121
4B-\	.	.	4e-/	.	4g/	.	2ryy	4B-\	Do-	4B-\	Do-	4e-\	Do-	.	4g\	Do-	.	4e-\	.	4g\	.
4BB-/	.	.	4d/	.	4f/	.	.	4BB-/	-mi-	4B-\	-mi-	4d\	-mi-	.	4f\	-mi-	.	4B-/	.	4f\	.
=122	=122	=122	=122	=122	=122	=122	=122	=122	=122	=122	=122	=122	=122	=122	=122	=122	=122	=122	=122	=122	=122
8E-'\L	.	.	2G/ 2e-	.	4e-/	.	2ryy	4E-\	-ne	4B-\	-ne	4e-\	-ne	.	4g\	-ne	.	4G/	.	2e-\	.
8B-'\	.	.	.	.	.	.	.	.	.	.	.	.	.	.	.	.	.	.	.	.	.
8G'\	.	.	.	.	4r	.	.	4r	.	4r	.	4r	.	.	4r	.	.	4r	.	.	.
8E-'\J	.	.	.	.	.	.	.	.	.	.	.	.	.	.	.	.	.	.	.	.	.
=123	=123	=123	=123	=123	=123	=123	=123	=123	=123	=123	=123	=123	=123	=123	=123	=123	=123	=123	=123	=123	=123
8G\L	x 6	.	8e-/L	.	8r	.	2ryy	4E-\	do-	4B-\	do-	4g\	do-	.	4ee-\	do-	.	2E-/	.	2e-\	.
8E-\	x _	.	8e-/	.	8ee-\L	.	.	.	.	.	.	.	.	.	.	.	.	.	.	.	.
8G\	.	.	8e-/	.	8dd\	.	.	4G\	-na	4B-\	-na	4g\	-na	.	4ee-\	-na	.	.	.	.	.
8E-\J	.	.	8e-/J	.	8ee-\J	.	.	.	.	.	.	.	.	.	.	.	.	.	.	.	.
=124	=124	=124	=124	=124	=124	=124	=124	=124	=124	=124	=124	=124	=124	=124	=124	=124	=124	=124	=124	=124	=124
.	x 5	.	.	.	8qqdd/	.	.	.	.	.	.	.	.	.	8qqdd/	.	.	.	.	.	.
8A-\L	x _	.	8e-/L	.	4cc\	.	2ryy	4A-\	e-	4e-\	e-	4a-\	e-	.	4cc\	e-	.	2E-/	.	2e-\	.
8E-\	.	.	8e-/	.	.	.	.	.	.	.	.	.	.	.	.	.	.	.	.	.	.
8A-\	.	.	8e-/	.	[4cc\	.	.	4A-\	-is	4e-\	-is	4a-\	-is	.	4cc\	-is	.	.	.	.	.
8E-\J	.	.	8e-/J	.	.	.	.	.	.	.	.	.	.	.	.	.	.	.	.	.	.
=125	=125	=125	=125	=125	=125	=125	=125	=125	=125	=125	=125	=125	=125	=125	=125	=125	=125	=125	=125	=125	=125
*	*	*	*	*	*	*	*	*	*ij	*	*ij	*	*ij	*	*	*ij	*	*	*	*	*
8A-\L	x x	.	8e-/L	.	8cc\L]	.	2ryy	4A-\	do-	4e-\	do-	8a-\L	do-	.	8cc\L	do-	.	2E-/	.	2e-\	.
8E-\	.	.	8e-/	.	8ee-\	.	.	.	.	.	.	8cc\J	.	.	8ee-\J	.	.	.	.	.	.
8A-\	.	.	8e-/	.	8dd\	.	.	4A-\	-na	4e-\	-na	8b-\L	-na	.	8dd\L	-na	.	.	.	.	.
8E-\J	.	.	8e-/J	.	8cc\J	.	.	.	.	.	.	8a-\J	.	.	8cc\J	.	.	.	.	.	.
=126	=126	=126	=126	=126	=126	=126	=126	=126	=126	=126	=126	=126	=126	=126	=126	=126	=126	=126	=126	=126	=126
.	.	.	.	.	8qqcc/	.	.	.	.	.	.	.	.	.	8qqcc/	.	.	.	.	.	.
8G\L	x 6	.	8e-/L	.	4b-\	.	2ryy	4E-\	e-	4e-\	e-	4g\	e-	.	4b-\	e-	.	2E-/	.	2e-\	.
8E-\	x _	.	8e-/	.	.	.	.	.	.	.	.	.	.	.	.	.	.	.	.	.	.
8G\	.	.	8e-/	.	[4b-\	.	.	4E-\	-is	4e-\	-is	4g\	-is	.	4b-\	-is	.	.	.	.	.
8E-\J	.	.	8e-/J	.	.	.	.	.	.	.	.	.	.	.	.	.	.	.	.	.	.
*	*	*	*	*	*	*	*	*	*Xij	*	*Xij	*	*Xij	*	*	*Xij	*	*	*	*	*
=127	=127	=127	=127	=127	=127	=127	=127	=127	=127	=127	=127	=127	=127	=127	=127	=127	=127	=127	=127	=127	=127
!LO:LB:g=original	!	!	!	!	!	!	!	!	!	!	!	!	!	!	!	!	!	!	!	!	!
8G\L	x 6	.	8e-/L	.	8b-\L]	.	2ryy	4E-\	do-	4e-\	do-	4g\	do-	.	4b-\	do-	.	2E-/	.	2e-\	.
8E-\	.	.	8e-/	.	8ee-\	.	.	.	.	.	.	.	.	.	.	.	.	.	.	.	.
8G\	.	.	8e-/	.	8dd\	.	.	4G\	-na	4B-\	-na	4g\	-na	.	4ee-\	-na	.	.	.	.	.
8E-\J	.	.	8e-/J	.	8ee-\J	.	.	.	.	.	.	.	.	.	.	.	.	.	.	.	.
*	*	*	*Xtremolo	*	*	*	*	*	*	*	*	*	*	*	*	*	*	*	*	*	*
=128	=128	=128	=128	=128	=128	=128	=128	=128	=128	=128	=128	=128	=128	=128	=128	=128	=128	=128	=128	=128	=128
2A-\	.	.	8b-/L	.	8dd\L	.	2ryy	4A-\	e-	4A-\	e-	8b-\L	e-	.	8dd\L	e-	.	2r	.	2r	.
.	.	.	8a-/	.	8cc\	.	.	.	.	.	.	8a-\J	.	.	8cc\J	.	.	.	.	.	.
.	.	.	8g/	.	8b-\	.	.	4A-\	-is	4c\	-is	8g\L	-is	.	8b-\L	-is	.	.	.	.	.
.	.	.	8f/J	.	8a-\J	.	.	.	.	.	.	8f\J	.	.	8a-\J	.	.	.	.	.	.
=129	=129	=129	=129	=129	=129	=129	=129	=129	=129	=129	=129	=129	=129	=129	=129	=129	=129	=129	=129	=129	=129
!	!	!	!	!	!LO:N:vis=2	!	!	!	!	!	!	!LO:LB:g=original	!	!	!	!	!	!LO:LB:g=original	!	!	!
4B-\	6 4	.	4e-/	.	4g/	.	2ryy	4B-\	Re-	4B-\	Re-	4e-\	Re-	.	4g\	Re-	.	4e-\	.	4g\	.
.	5 3	.	.	.	.	.	.	.	.	.	.	.	.	.	.	.	.	.	.	.	.
=-	=-	=-	=-	=-	=	=	=-	=-	=-	=-	=-	=-	=-	=-	=-	=-	=-	=-	=-	=-	=-
!	!	!	!	!	!LO:N:vis=2	!	!	!	!	!	!	!	!	!	!	!	!	!	!	!	!
4BB-/	.	.	4d/	.	4f/	.	.	4BB-/	-qui-	4B-\	-qui-	4d\	-qui-	.	4f\	-qui-	.	4B-/	.	4f\	.
=130	=130	=130	=130	=130	=130	=130	=130	=130	=130	=130	=130	=130	=130	=130	=130	=130	=130	=130	=130	=130	=130
4E-|\	.	.	4e-/	.	4e-/	.	2ryy	4E-\	-em.	4B-\	-em.	4e-\	-em.	.	4g\	-em.	.	4G/	.	4e-\	.
4E-|\	.	.	4ee-\	.	4ee-\	.	.	4r	.	4r	.	4r	.	.	4r	.	.	4r	.	4r	.
=131	=131	=131	=131	=131	=131	=131	=131	=131	=131	=131	=131	=131	=131	=131	=131	=131	=131	=131	=131	=131	=131
!	!	!	!	!	!	!	!	!LO:N:vis=00	!	!LO:N:vis=00	!	!LO:N:vis=00	!	!	!LO:N:vis=00	!	!	!	!	!	!
4E-|\	.	.	4b-/	.	4b-\	.	2ryy	0r	.	0r	.	0r	.	.	0r	.	.	2r	.	2r	.
4E-|\	.	.	4g/	.	4g\	.	.	.	.	.	.	.	.	.	.	.	.	.	.	.	.
=132	=132	=132	=132	=132	=132	=132	=132	=132	=132	=132	=132	=132	=132	=132	=132	=132	=132	=132	=132	=132	=132
!	!	!	!	!	!LO:LB:g=original	!	!	!	!	!	!	!	!	!	!	!	!	!	!	!LO:LB:g=original	!
4E-'\	.	.	4e-/	.	4e-/	.	2ryy	.	.	.	.	.	.	.	.	.	.	4r	.	4r	.
4e-'\	.	.	4G/ 4e-	.	4G/ 4e-	.	.	.	.	.	.	.	.	.	.	.	.	4G/	.	4e-\	.
=133	=133	=133	=133	=133	=133	=133	=133	=133	=133	=133	=133	=133	=133	=133	=133	=133	=133	=133	=133	=133	=133
4B-'\	.	.	4G/ 4e-	.	4G/ 4e-	.	2ryy	.	.	.	.	.	.	.	.	.	.	4G/	.	4e-\	.
4G'\	.	.	4G/ 4e-	.	4G/ 4e-	.	.	.	.	.	.	.	.	.	.	.	.	4G/	.	4e-\	.
=134	=134	=134	=134	=134	=134	=134	=134	=134	=134	=134	=134	=134	=134	=134	=134	=134	=134	=134	=134	=134	=134
2E-\	.	.	2G/ 2e-	.	2G/ 2e-	.	2ryy	.	.	.	.	.	.	.	.	.	.	2G/	.	2e-\	.
==	==	==	==	==	==	==	==	==	==	==	==	==	==	==	==	==	==	==	==	==	==
*-	*-	*-	*-	*-	*-	*-	*-	*-	*-	*-	*-	*-	*-	*-	*-	*-	*-	*-	*-	*-	*-
!!!system-decoration: [(s1,s2)][(s3,s4,s5,s6)][(s7,s8,s9)](s10)
!!!AIN: 1 alto 3 empty 1 organ 1 tenor 3 violn 1 vox
!!!ENC: Marcin Jachim
!!!END: 2020-08-17
!!!ENC: Krzysztof Stępień
!!!END: 2021-10-30
!!!RDF**kern: | = vertical stroke
!!!RDF**kern: > = above
!!!RDF**kern: < = below
